;FLAVOR:Marlin
;TIME:429
;Filament used: 0.144258m
;Layer height: 0.2
;MINX:132.481
;MINY:139.37
;MINZ:0.2
;MAXX:165.993
;MAXY:159.864
;MAXZ:7.4
;Generated with Cura_SteamEngine 5.2.2
M140 S70
M105
M190 S70
M104 S220
M105
M109 S220
M82 ;absolute extrusion mode
M201 X500.00 Y500.00 Z100.00 E5000.00 ;Setup machine max acceleration
M203 X500.00 Y500.00 Z10.00 E50.00 ;Setup machine max feedrate
M204 P500.00 R1000.00 T500.00 ;Setup Print/Retract/Travel acceleration
M205 X8.00 Y8.00 Z0.40 E5.00 ;Setup Jerk
M220 S100 ;Reset Feedrate
M221 S100 ;Reset Flowrate

G28 ;Home

G92 E0 ;Reset Extruder
G1 Z2.0 F3000 ;Move Z Axis up
G1 X10.1 Y20 Z0.28 F5000.0 ;Move to start position
G1 X10.1 Y200.0 Z0.28 F1500.0 E15 ;Draw the first line
G1 X10.4 Y200.0 Z0.28 F5000.0 ;Move to side a little
G1 X10.4 Y20 Z0.28 F1500.0 E30 ;Draw the second line
G92 E0 ;Reset Extruder
G1 Z2.0 F3000 ;Move Z Axis up
G92 E0
G92 E0
G1 F600 E-0.6
;LAYER_COUNT:37
;LAYER:0
M107
M204 S500
M205 X15 Y15
G0 F4200 X135.631 Y142.47 Z0.2
M204 S1100
;TYPE:SKIRT
G1 F600 E0
G1 F900 X136.449 Y141.733 E0.04394
G1 X137.066 Y141.231 E0.07569
G1 X137.73 Y140.793 E0.10744
G1 X138.512 Y140.389 E0.14257
G1 X138.762 Y140.277 E0.1535
G1 X139.443 Y140.009 E0.18271
G1 X140.082 Y139.791 E0.20966
G1 X140.847 Y139.572 E0.24142
G1 X141.63 Y139.432 E0.27317
G1 X142.423 Y139.37 E0.30491
G1 X143.219 Y139.388 E0.33669
G1 X144.009 Y139.486 E0.36846
G1 X144.94 Y139.709 E0.40667
G1 X145.333 Y139.828 E0.42306
G1 X145.681 Y139.918 E0.43741
G1 X146.44 Y140.155 E0.46914
G1 X147.172 Y140.467 E0.5009
G1 X147.869 Y140.851 E0.53266
G1 X148.211 Y141.075 E0.54898
G1 X148.607 Y141.349 E0.5682
G1 X149.238 Y141.834 E0.59997
G1 X149.4 Y141.99 E0.60894
G1 X149.685 Y141.733 E0.62426
G1 X150.302 Y141.231 E0.65601
G1 X150.966 Y140.793 E0.68775
G1 X151.748 Y140.389 E0.72288
G1 X151.998 Y140.277 E0.73382
G1 X152.679 Y140.009 E0.76303
G1 X153.318 Y139.791 E0.78997
G1 X154.083 Y139.572 E0.82173
G1 X154.866 Y139.432 E0.85348
G1 X155.659 Y139.37 E0.88523
G1 X156.455 Y139.388 E0.91701
G1 X157.245 Y139.486 E0.94878
G1 X158.176 Y139.709 E0.98699
G1 X158.569 Y139.828 E1.00338
G1 X158.917 Y139.918 E1.01772
G1 X159.676 Y140.155 E1.04946
G1 X160.408 Y140.467 E1.08122
G1 X161.105 Y140.851 E1.11298
G1 X161.447 Y141.075 E1.1293
G1 X161.843 Y141.349 E1.14852
G1 X162.474 Y141.834 E1.18028
G1 X163.163 Y142.497 E1.21844
G1 X163.442 Y142.8 E1.23488
G1 X163.951 Y143.412 E1.26665
G1 X164.264 Y143.86 E1.28846
G1 X164.613 Y144.399 E1.31409
G1 X165.011 Y145.088 E1.34585
G1 X165.339 Y145.814 E1.37765
G1 X165.592 Y146.568 E1.40939
G1 X165.88 Y147.837 E1.46133
G1 X165.976 Y148.627 E1.49309
G1 X165.993 Y149.422 E1.52483
G1 X165.951 Y149.946 E1.54581
G1 X165.959 Y150.234 E1.55731
G1 X165.903 Y151.028 E1.58908
G1 X165.736 Y151.967 E1.62714
G1 X165.487 Y152.837 E1.66326
G1 X165.192 Y153.576 E1.69502
G1 X164.825 Y154.282 E1.72678
G1 X164.663 Y154.522 E1.73833
G1 X164.305 Y155.161 E1.76757
G1 X163.994 Y155.631 E1.79006
G1 X163.522 Y156.272 E1.82183
G1 X162.988 Y156.862 E1.85359
G1 X162.398 Y157.396 E1.88535
G1 X161.757 Y157.868 E1.91712
G1 X161.229 Y158.18 E1.9416
G1 X160.806 Y158.45 E1.96163
G1 X160.096 Y158.809 E1.99339
G1 X159.651 Y158.98 E2.01241
G1 X159.357 Y159.129 E2.02557
G1 X158.615 Y159.417 E2.05733
G1 X157.848 Y159.628 E2.08908
G1 X157.008 Y159.768 E2.12307
G1 X156.587 Y159.815 E2.13998
G1 X155.792 Y159.864 E2.17177
G1 X154.997 Y159.832 E2.20353
G1 X154.28 Y159.734 E2.23241
G1 X153.969 Y159.677 E2.24503
G1 X153.22 Y159.502 E2.27573
G1 X152.58 Y159.319 E2.3023
G1 X151.827 Y159.062 E2.33405
G1 X151.103 Y158.731 E2.36583
G1 X150.416 Y158.329 E2.39759
G1 X149.989 Y158.028 E2.41845
G1 X149.156 Y157.4 E2.46008
G1 X148.521 Y157.868 E2.49157
G1 X147.993 Y158.18 E2.51604
G1 X147.57 Y158.45 E2.53607
G1 X146.86 Y158.809 E2.56783
G1 X146.415 Y158.98 E2.58685
G1 X146.121 Y159.129 E2.60001
G1 X145.379 Y159.417 E2.63178
G1 X144.612 Y159.628 E2.66353
G1 X143.772 Y159.768 E2.69752
G1 X143.351 Y159.815 E2.71442
G1 X142.556 Y159.864 E2.74621
G1 X141.761 Y159.832 E2.77797
G1 X141.044 Y159.734 E2.80685
G1 X140.733 Y159.677 E2.81947
G1 X139.984 Y159.502 E2.85017
G1 X139.344 Y159.319 E2.87674
G1 X138.591 Y159.062 E2.90849
G1 X137.867 Y158.731 E2.94027
G1 X137.18 Y158.329 E2.97204
G1 X136.753 Y158.028 E2.99289
G1 X136.119 Y157.55 E3.02458
G1 X135.509 Y157.04 E3.05631
G1 X134.952 Y156.471 E3.08809
G1 X134.456 Y155.849 E3.11984
G1 X134.219 Y155.5 E3.13668
G1 X133.73 Y154.737 E3.17285
G1 X133.335 Y154.046 E3.20462
G1 X133.011 Y153.319 E3.23639
G1 X132.762 Y152.563 E3.26816
G1 X132.589 Y151.786 E3.29993
G1 X132.496 Y150.996 E3.33167
G1 X132.481 Y150.248 E3.36153
G1 X132.506 Y149.327 E3.39831
G1 X132.567 Y148.534 E3.43005
G1 X132.708 Y147.751 E3.46181
G1 X132.888 Y147.102 E3.48869
G1 X133.162 Y146.256 E3.52418
G1 X133.445 Y145.512 E3.55595
G1 X133.801 Y144.8 E3.58772
G1 X134.169 Y144.211 E3.61544
G1 X134.404 Y143.869 E3.632
G1 X134.887 Y143.236 E3.66378
G1 X135.631 Y142.47 E3.7064
M204 S500
G0 F4200 X135.952 Y142.827
M204 S1100
G1 F900 X136.77 Y142.09 E3.75035
G1 X137.369 Y141.604 E3.78113
G1 X138.015 Y141.183 E3.81191
G1 X138.708 Y140.827 E3.843
G1 X138.958 Y140.715 E3.85394
G1 X139.598 Y140.463 E3.88139
G1 X140.237 Y140.245 E3.90834
G1 X140.979 Y140.035 E3.93911
G1 X141.738 Y139.902 E3.96987
G1 X142.508 Y139.848 E4.00068
G1 X143.278 Y139.875 E4.03143
G1 X144.042 Y139.981 E4.06221
G1 X144.801 Y140.168 E4.09341
G1 X145.218 Y140.295 E4.11081
G1 X145.561 Y140.383 E4.12494
G1 X146.297 Y140.614 E4.15573
G1 X147.005 Y140.92 E4.18652
G1 X147.938 Y141.47 E4.22974
G1 X148.334 Y141.744 E4.24896
G1 X148.945 Y142.215 E4.27975
G1 X149.39 Y142.645 E4.30445
G1 X150.006 Y142.09 E4.33754
G1 X150.605 Y141.604 E4.36833
G1 X151.251 Y141.183 E4.39911
G1 X151.944 Y140.827 E4.4302
G1 X152.194 Y140.715 E4.44114
G1 X152.834 Y140.463 E4.46859
G1 X153.473 Y140.245 E4.49554
G1 X154.215 Y140.035 E4.52631
G1 X154.974 Y139.902 E4.55707
G1 X155.744 Y139.848 E4.58788
G1 X156.514 Y139.875 E4.61863
G1 X157.278 Y139.981 E4.64941
G1 X158.037 Y140.168 E4.68061
G1 X158.454 Y140.295 E4.69801
G1 X158.797 Y140.383 E4.71214
G1 X159.533 Y140.614 E4.74293
G1 X160.241 Y140.92 E4.77372
G1 X161.174 Y141.47 E4.81694
G1 X161.57 Y141.744 E4.83616
G1 X162.181 Y142.215 E4.86695
G1 X162.81 Y142.822 E4.90184
G1 X163.089 Y143.125 E4.91828
G1 X163.581 Y143.719 E4.94906
G1 X163.861 Y144.121 E4.96862
G1 X164.21 Y144.66 E4.99425
G1 X164.595 Y145.329 E5.02505
G1 X164.909 Y146.033 E5.05582
G1 X165.148 Y146.766 E5.08659
G1 X165.411 Y147.942 E5.13469
G1 X165.501 Y148.708 E5.16547
G1 X165.51 Y149.479 E5.19624
G1 X165.468 Y149.846 E5.21099
G1 X165.479 Y150.248 E5.22704
G1 X165.42 Y151.017 E5.25782
G1 X165.268 Y151.862 E5.29209
G1 X165.025 Y152.704 E5.32707
G1 X164.736 Y153.419 E5.35785
G1 X164.374 Y154.1 E5.38863
G1 X164.245 Y154.291 E5.39783
G1 X163.905 Y154.897 E5.42556
G1 X163.594 Y155.367 E5.44805
G1 X163.135 Y155.987 E5.47884
G1 X162.615 Y156.556 E5.50961
G1 X162.039 Y157.069 E5.54039
G1 X161.413 Y157.519 E5.57116
G1 X161.038 Y157.733 E5.5884
G1 X160.548 Y158.045 E5.61158
G1 X159.858 Y158.389 E5.64235
G1 X159.464 Y158.537 E5.65915
G1 X159.139 Y158.701 E5.67368
G1 X158.419 Y158.976 E5.70444
G1 X157.674 Y159.175 E5.73522
G1 X156.954 Y159.291 E5.76433
G1 X156.533 Y159.338 E5.78123
G1 X155.764 Y159.384 E5.81198
G1 X154.993 Y159.35 E5.84278
G1 X154.367 Y159.262 E5.86801
G1 X154.056 Y159.205 E5.88063
G1 X153.352 Y159.04 E5.90949
G1 X152.712 Y158.857 E5.93606
G1 X151.982 Y158.607 E5.96686
G1 X151.282 Y158.283 E5.99764
G1 X150.62 Y157.888 E6.02841
G1 X150.278 Y157.645 E6.04516
G1 X149.644 Y157.167 E6.07685
G1 X149.154 Y156.756 E6.10237
G1 X148.803 Y157.069 E6.12114
G1 X148.177 Y157.519 E6.15191
G1 X147.802 Y157.733 E6.16915
G1 X147.312 Y158.045 E6.19233
G1 X146.622 Y158.389 E6.2231
G1 X146.228 Y158.537 E6.2399
G1 X145.903 Y158.701 E6.25443
G1 X145.183 Y158.976 E6.28519
G1 X144.438 Y159.175 E6.31597
G1 X143.718 Y159.291 E6.34508
G1 X143.297 Y159.338 E6.36198
G1 X142.528 Y159.384 E6.39273
G1 X141.757 Y159.35 E6.42353
G1 X141.131 Y159.262 E6.44876
G1 X140.82 Y159.205 E6.46138
G1 X140.116 Y159.04 E6.49024
G1 X139.476 Y158.857 E6.51681
G1 X138.746 Y158.607 E6.54761
G1 X138.046 Y158.283 E6.57839
G1 X137.384 Y157.888 E6.60916
G1 X137.042 Y157.645 E6.62591
G1 X136.408 Y157.167 E6.6576
G1 X135.817 Y156.671 E6.68839
G1 X135.281 Y156.117 E6.71916
G1 X134.623 Y155.241 E6.76289
G1 X134.134 Y154.478 E6.79906
G1 X133.752 Y153.807 E6.82987
G1 X133.442 Y153.102 E6.86061
G1 X133.206 Y152.367 E6.89142
G1 X133.047 Y151.612 E6.92222
G1 X132.968 Y150.845 E6.95299
G1 X132.961 Y150.261 E6.9763
G1 X132.986 Y149.34 E7.01307
G1 X133.047 Y148.571 E7.04386
G1 X133.187 Y147.813 E7.07463
G1 X133.345 Y147.25 E7.09797
G1 X133.619 Y146.404 E7.13346
G1 X133.894 Y145.683 E7.16426
G1 X134.243 Y144.995 E7.19505
G1 X134.565 Y144.483 E7.21919
G1 X134.8 Y144.141 E7.23575
G1 X135.269 Y143.528 E7.26656
G1 X135.952 Y142.827 E7.30562
M204 S500
G0 F4200 X136.273 Y143.183
M204 S1100
G1 F900 X137.091 Y142.446 E7.34956
G1 X137.671 Y141.977 E7.37933
G1 X138.298 Y141.573 E7.4091
G1 X138.904 Y141.265 E7.43624
G1 X139.154 Y141.153 E7.44717
G1 X139.753 Y140.918 E7.47285
G1 X140.392 Y140.7 E7.4998
G1 X141.11 Y140.497 E7.52958
G1 X141.845 Y140.372 E7.55933
G1 X142.59 Y140.327 E7.58912
G1 X143.335 Y140.362 E7.61889
G1 X144.072 Y140.476 E7.64866
G1 X144.661 Y140.627 E7.67292
G1 X145.097 Y140.759 E7.69111
G1 X145.441 Y140.848 E7.70529
G1 X146.153 Y141.073 E7.73509
G1 X146.836 Y141.372 E7.76485
G1 X147.665 Y141.865 E7.80334
G1 X148.061 Y142.139 E7.82256
G1 X148.651 Y142.595 E7.85233
G1 X149.379 Y143.3 E7.89277
G1 X150.327 Y142.446 E7.9437
G1 X150.907 Y141.977 E7.97347
G1 X151.534 Y141.573 E8.00324
G1 X152.14 Y141.265 E8.03037
G1 X152.39 Y141.153 E8.0413
G1 X152.989 Y140.918 E8.06699
G1 X153.628 Y140.7 E8.09393
G1 X154.346 Y140.497 E8.12371
G1 X155.081 Y140.372 E8.15347
G1 X155.826 Y140.327 E8.18326
G1 X156.571 Y140.362 E8.21303
G1 X157.308 Y140.476 E8.24279
G1 X157.897 Y140.627 E8.26706
G1 X158.333 Y140.759 E8.28524
G1 X158.677 Y140.848 E8.29942
G1 X159.389 Y141.073 E8.32923
G1 X160.072 Y141.372 E8.35898
G1 X160.901 Y141.865 E8.39748
G1 X161.297 Y142.139 E8.4167
G1 X161.887 Y142.595 E8.44646
G1 X162.457 Y143.147 E8.47813
G1 X162.736 Y143.45 E8.49457
G1 X163.211 Y144.026 E8.52437
G1 X163.458 Y144.382 E8.54166
G1 X163.807 Y144.921 E8.56729
G1 X164.179 Y145.568 E8.59708
G1 X164.478 Y146.251 E8.62683
G1 X164.704 Y146.962 E8.65661
G1 X164.942 Y148.047 E8.70095
G1 X165.024 Y148.788 E8.7307
G1 X165.027 Y149.534 E8.76048
G1 X164.988 Y149.859 E8.77354
G1 X164.998 Y150.261 E8.78959
G1 X164.938 Y151.004 E8.81934
G1 X164.798 Y151.76 E8.85003
G1 X164.563 Y152.571 E8.88373
G1 X164.28 Y153.261 E8.91349
G1 X163.924 Y153.916 E8.94325
G1 X163.825 Y154.06 E8.95022
G1 X163.504 Y154.632 E8.9764
G1 X163.193 Y155.102 E8.9989
G1 X162.749 Y155.701 E9.02865
G1 X162.243 Y156.249 E9.05842
G1 X161.681 Y156.74 E9.08821
G1 X161.07 Y157.168 E9.11798
G1 X160.79 Y157.323 E9.13076
G1 X160.29 Y157.639 E9.15436
G1 X159.621 Y157.969 E9.18414
G1 X159.272 Y158.096 E9.19896
G1 X158.923 Y158.272 E9.21456
G1 X158.225 Y158.534 E9.24432
G1 X157.502 Y158.72 E9.27411
G1 X156.901 Y158.814 E9.29839
G1 X156.48 Y158.861 E9.3153
G1 X155.736 Y158.904 E9.34504
G1 X154.991 Y158.867 E9.37482
G1 X154.453 Y158.79 E9.39651
G1 X154.142 Y158.733 E9.40913
G1 X153.484 Y158.579 E9.4361
G1 X152.844 Y158.396 E9.46267
G1 X152.138 Y158.153 E9.49247
G1 X151.463 Y157.835 E9.52225
G1 X150.567 Y157.261 E9.56472
G1 X149.933 Y156.783 E9.59641
G1 X149.362 Y156.303 E9.62618
G1 X149.172 Y156.105 E9.63713
G1 X148.445 Y156.74 E9.67566
G1 X147.834 Y157.168 E9.70543
G1 X147.554 Y157.323 E9.71821
G1 X147.054 Y157.639 E9.74181
G1 X146.385 Y157.969 E9.77159
G1 X146.036 Y158.096 E9.78641
G1 X145.687 Y158.272 E9.80201
G1 X144.989 Y158.534 E9.83177
G1 X144.266 Y158.72 E9.86156
G1 X143.665 Y158.814 E9.88584
G1 X143.244 Y158.861 E9.90275
G1 X142.5 Y158.904 E9.93249
G1 X141.755 Y158.867 E9.96226
G1 X141.217 Y158.79 E9.98396
G1 X140.906 Y158.733 E9.99658
G1 X140.248 Y158.579 E10.02355
G1 X139.608 Y158.396 E10.05011
G1 X138.902 Y158.153 E10.07991
G1 X138.227 Y157.835 E10.1097
G1 X137.331 Y157.261 E10.15217
G1 X136.697 Y156.783 E10.18386
G1 X136.126 Y156.303 E10.21363
G1 X135.61 Y155.764 E10.24341
G1 X135.027 Y154.982 E10.28234
G1 X134.538 Y154.219 E10.31851
G1 X134.17 Y153.57 E10.34829
G1 X133.873 Y152.885 E10.37809
G1 X133.651 Y152.173 E10.40785
G1 X133.507 Y151.441 E10.43763
G1 X133.442 Y150.698 E10.4674
G1 X133.441 Y150.274 E10.48432
G1 X133.466 Y149.353 E10.52109
G1 X133.526 Y148.61 E10.55084
G1 X133.665 Y147.877 E10.58062
G1 X133.802 Y147.397 E10.60054
G1 X134.076 Y146.551 E10.63604
G1 X134.343 Y145.855 E10.66579
G1 X134.684 Y145.192 E10.69555
G1 X134.961 Y144.754 E10.71623
G1 X135.196 Y144.412 E10.73279
G1 X135.65 Y143.821 E10.76254
G1 X136.273 Y143.183 E10.79813
M204 S500
G0 F4200 X136.595 Y143.54
M204 S1100
G1 F900 X137.413 Y142.803 E10.84207
G1 X137.973 Y142.351 E10.8708
G1 X138.58 Y141.965 E10.89951
G1 X139.101 Y141.703 E10.92278
G1 X139.351 Y141.591 E10.93371
G1 X139.908 Y141.372 E10.9576
G1 X140.547 Y141.154 E10.98455
G1 X141.24 Y140.96 E11.01327
G1 X141.95 Y140.844 E11.04199
G1 X142.669 Y140.807 E11.07072
G1 X143.387 Y140.85 E11.09943
G1 X144.096 Y140.973 E11.12815
G1 X144.522 Y141.087 E11.14575
G1 X144.954 Y141.218 E11.16377
G1 X145.322 Y141.313 E11.17894
G1 X146.007 Y141.531 E11.20763
G1 X146.665 Y141.824 E11.23638
G1 X147.392 Y142.259 E11.27019
G1 X147.788 Y142.533 E11.28941
G1 X148.356 Y142.975 E11.31813
G1 X148.868 Y143.473 E11.34664
G1 X149.147 Y143.776 E11.36308
G1 X149.354 Y144.027 E11.37607
G1 X149.831 Y143.54 E11.40327
G1 X150.649 Y142.803 E11.44722
G1 X151.209 Y142.351 E11.47594
G1 X151.816 Y141.965 E11.50465
G1 X152.337 Y141.703 E11.52793
G1 X152.587 Y141.591 E11.53886
G1 X153.144 Y141.372 E11.56275
G1 X153.783 Y141.154 E11.5897
G1 X154.476 Y140.96 E11.61842
G1 X155.186 Y140.844 E11.64713
G1 X155.905 Y140.807 E11.67587
G1 X156.623 Y140.85 E11.70457
G1 X157.332 Y140.973 E11.7333
G1 X157.758 Y141.087 E11.7509
G1 X158.19 Y141.218 E11.76891
G1 X158.558 Y141.313 E11.78408
G1 X159.243 Y141.531 E11.81277
G1 X159.901 Y141.824 E11.84152
G1 X160.628 Y142.259 E11.87534
G1 X161.024 Y142.533 E11.89456
G1 X161.592 Y142.975 E11.92328
G1 X162.104 Y143.473 E11.95179
G1 X162.383 Y143.776 E11.96823
G1 X162.84 Y144.331 E11.99692
G1 X163.055 Y144.643 E12.01204
G1 X163.404 Y145.182 E12.03767
G1 X163.761 Y145.807 E12.0664
G1 X164.047 Y146.468 E12.09515
G1 X164.257 Y147.156 E12.12386
G1 X164.472 Y148.15 E12.16445
G1 X164.548 Y148.866 E12.19318
G1 X164.544 Y149.586 E12.22192
G1 X164.508 Y149.869 E12.23331
G1 X164.518 Y150.273 E12.24944
G1 X164.455 Y150.99 E12.27816
G1 X164.33 Y151.657 E12.30525
G1 X164.102 Y152.436 E12.33764
G1 X163.825 Y153.1 E12.36636
G1 X163.475 Y153.73 E12.39512
G1 X163.404 Y153.831 E12.40005
G1 X163.104 Y154.367 E12.42457
G1 X162.793 Y154.837 E12.44706
G1 X162.363 Y155.414 E12.47578
G1 X161.872 Y155.94 E12.5045
G1 X161.325 Y156.408 E12.53323
G1 X160.73 Y156.813 E12.56196
G1 X160.54 Y156.913 E12.57053
G1 X160.034 Y157.233 E12.59443
G1 X159.386 Y157.547 E12.62316
G1 X159.08 Y157.655 E12.63612
G1 X158.707 Y157.842 E12.65277
G1 X158.032 Y158.091 E12.68149
G1 X157.333 Y158.264 E12.71023
G1 X156.848 Y158.337 E12.7298
G1 X156.427 Y158.384 E12.74671
G1 X155.708 Y158.424 E12.77545
G1 X154.99 Y158.384 E12.80415
G1 X154.54 Y158.318 E12.8223
G1 X154.229 Y158.261 E12.83492
G1 X153.616 Y158.117 E12.86006
G1 X152.976 Y157.934 E12.88662
G1 X152.296 Y157.698 E12.91535
G1 X151.646 Y157.388 E12.94409
G1 X150.856 Y156.878 E12.98162
G1 X150.222 Y156.4 E13.01331
G1 X149.672 Y155.936 E13.04203
G1 X149.152 Y155.38 E13.07242
G1 X148.636 Y155.94 E13.10281
G1 X148.089 Y156.408 E13.13154
G1 X147.494 Y156.813 E13.16027
G1 X147.304 Y156.913 E13.16884
G1 X146.798 Y157.233 E13.19273
G1 X146.15 Y157.547 E13.22147
G1 X145.844 Y157.655 E13.23443
G1 X145.471 Y157.842 E13.25108
G1 X144.796 Y158.091 E13.27979
G1 X144.097 Y158.264 E13.30853
G1 X143.612 Y158.337 E13.32811
G1 X143.191 Y158.384 E13.34502
G1 X142.472 Y158.424 E13.37376
G1 X141.754 Y158.384 E13.40246
