;FLAVOR:Marlin
;TIME:219
;Filament used: 0.0769443m
;Layer height: 0.2
;MINX:139.381
;MINY:139.37
;MINZ:0.2
;MAXX:159.657
;MAXY:159.864
;MAXZ:7.4
;Generated with Cura_SteamEngine 5.2.2
M140 S70
M105
M190 S70
M104 S220
M105
M109 S220
M82 ;absolute extrusion mode
M201 X500.00 Y500.00 Z100.00 E5000.00 ;Setup machine max acceleration
M203 X500.00 Y500.00 Z10.00 E50.00 ;Setup machine max feedrate
M204 P500.00 R1000.00 T500.00 ;Setup Print/Retract/Travel acceleration
M205 X8.00 Y8.00 Z0.40 E5.00 ;Setup Jerk
M220 S100 ;Reset Feedrate
M221 S100 ;Reset Flowrate

G28 ;Home

G92 E0 ;Reset Extruder
G1 Z2.0 F3000 ;Move Z Axis up
G1 X10.1 Y20 Z0.28 F5000.0 ;Move to start position
G1 X10.1 Y200.0 Z0.28 F1500.0 E15 ;Draw the first line
G1 X10.4 Y200.0 Z0.28 F5000.0 ;Move to side a little
G1 X10.4 Y20 Z0.28 F1500.0 E30 ;Draw the second line
G92 E0 ;Reset Extruder
G1 Z2.0 F3000 ;Move Z Axis up
G92 E0
G92 E0
G1 F600 E-0.6
;LAYER_COUNT:37
;LAYER:0
M107
M204 S500
M205 X15 Y15
G0 F4200 X142.531 Y142.47 Z0.2
M204 S1100
;TYPE:SKIRT
G1 F600 E0
G1 F900 X143.349 Y141.733 E0.04394
G1 X143.966 Y141.231 E0.07569
G1 X144.63 Y140.793 E0.10744
G1 X145.412 Y140.389 E0.14257
G1 X145.662 Y140.277 E0.1535
G1 X146.343 Y140.009 E0.18271
G1 X146.982 Y139.791 E0.20966
G1 X147.747 Y139.572 E0.24142
G1 X148.53 Y139.432 E0.27317
G1 X149.323 Y139.37 E0.30491
G1 X150.119 Y139.388 E0.33669
G1 X150.909 Y139.486 E0.36846
G1 X151.84 Y139.709 E0.40667
G1 X152.233 Y139.828 E0.42306
G1 X152.581 Y139.918 E0.43741
G1 X153.34 Y140.155 E0.46914
G1 X154.072 Y140.467 E0.5009
G1 X154.769 Y140.851 E0.53266
G1 X155.111 Y141.075 E0.54898
G1 X155.507 Y141.349 E0.5682
G1 X156.138 Y141.834 E0.59997
G1 X156.827 Y142.497 E0.63813
G1 X157.106 Y142.8 E0.65457
G1 X157.615 Y143.412 E0.68634
G1 X157.928 Y143.86 E0.70815
G1 X158.277 Y144.399 E0.73378
G1 X158.675 Y145.088 E0.76554
G1 X159.003 Y145.814 E0.79733
G1 X159.256 Y146.568 E0.82908
G1 X159.544 Y147.837 E0.88101
G1 X159.64 Y148.627 E0.91278
G1 X159.657 Y149.422 E0.94451
G1 X159.615 Y149.946 E0.96549
G1 X159.623 Y150.234 E0.97699
G1 X159.567 Y151.028 E1.00876
G1 X159.4 Y151.967 E1.04683
G1 X159.151 Y152.837 E1.08295
G1 X158.856 Y153.576 E1.1147
G1 X158.489 Y154.282 E1.14646
G1 X158.327 Y154.522 E1.15802
G1 X157.969 Y155.161 E1.18725
G1 X157.658 Y155.631 E1.20975
G1 X157.186 Y156.272 E1.24152
G1 X156.652 Y156.862 E1.27328
G1 X156.062 Y157.396 E1.30504
G1 X155.421 Y157.868 E1.33681
G1 X154.893 Y158.18 E1.36129
G1 X154.47 Y158.45 E1.38132
G1 X153.76 Y158.809 E1.41307
G1 X153.315 Y158.98 E1.4321
G1 X153.021 Y159.129 E1.44525
G1 X152.279 Y159.417 E1.47702
G1 X151.512 Y159.628 E1.50877
G1 X150.672 Y159.768 E1.54276
G1 X150.251 Y159.815 E1.55967
G1 X149.456 Y159.864 E1.59146
G1 X148.661 Y159.832 E1.62321
G1 X147.944 Y159.734 E1.6521
G1 X147.633 Y159.677 E1.66472
G1 X146.884 Y159.502 E1.69541
G1 X146.244 Y159.319 E1.72198
G1 X145.491 Y159.062 E1.75374
G1 X144.767 Y158.731 E1.78551
G1 X144.08 Y158.329 E1.81728
G1 X143.653 Y158.028 E1.83813
G1 X143.019 Y157.55 E1.86982
G1 X142.409 Y157.04 E1.90156
G1 X141.852 Y156.471 E1.93334
G1 X141.356 Y155.849 E1.96509
G1 X141.119 Y155.5 E1.98193
G1 X140.63 Y154.737 E2.0181
G1 X140.235 Y154.046 E2.04986
G1 X139.911 Y153.319 E2.08163
G1 X139.662 Y152.563 E2.1134
G1 X139.489 Y151.786 E2.14517
G1 X139.396 Y150.996 E2.17692
G1 X139.381 Y150.248 E2.20678
G1 X139.406 Y149.327 E2.24355
G1 X139.467 Y148.534 E2.2753
G1 X139.608 Y147.751 E2.30705
G1 X139.788 Y147.102 E2.33393
G1 X140.062 Y146.256 E2.36942
G1 X140.345 Y145.512 E2.40119
G1 X140.701 Y144.8 E2.43296
G1 X141.069 Y144.211 E2.46068
G1 X141.304 Y143.869 E2.47725
G1 X141.787 Y143.236 E2.50903
G1 X142.531 Y142.47 E2.55165
M204 S500
G0 F4200 X142.852 Y142.827
M204 S1100
G1 F900 X143.67 Y142.09 E2.59559
G1 X144.269 Y141.604 E2.62638
G1 X144.915 Y141.183 E2.65715
G1 X145.608 Y140.827 E2.68825
G1 X145.858 Y140.715 E2.69918
G1 X146.498 Y140.463 E2.72663
G1 X147.137 Y140.245 E2.75358
G1 X147.879 Y140.035 E2.78436
G1 X148.638 Y139.902 E2.81511
G1 X149.408 Y139.848 E2.84592
G1 X150.178 Y139.875 E2.87667
G1 X150.942 Y139.981 E2.90746
G1 X151.701 Y140.168 E2.93866
G1 X152.118 Y140.295 E2.95606
G1 X152.461 Y140.383 E2.97019
G1 X153.197 Y140.614 E3.00098
G1 X153.905 Y140.92 E3.03176
G1 X154.838 Y141.47 E3.07499
G1 X155.234 Y141.744 E3.09421
G1 X155.845 Y142.215 E3.125
G1 X156.474 Y142.822 E3.15989
G1 X156.753 Y143.125 E3.17633
G1 X157.245 Y143.719 E3.20711
G1 X157.525 Y144.121 E3.22666
G1 X157.874 Y144.66 E3.25229
G1 X158.259 Y145.329 E3.2831
G1 X158.573 Y146.033 E3.31386
G1 X158.812 Y146.766 E3.34464
G1 X159.075 Y147.942 E3.39273
G1 X159.165 Y148.708 E3.42352
G1 X159.174 Y149.479 E3.45429
G1 X159.132 Y149.846 E3.46903
G1 X159.143 Y150.248 E3.48508
G1 X159.084 Y151.017 E3.51587
G1 X158.932 Y151.862 E3.55013
G1 X158.689 Y152.704 E3.58511
G1 X158.4 Y153.419 E3.61589
G1 X158.038 Y154.1 E3.64667
G1 X157.909 Y154.291 E3.65587
G1 X157.569 Y154.897 E3.68361
G1 X157.258 Y155.367 E3.7061
G1 X156.799 Y155.987 E3.73689
G1 X156.279 Y156.556 E3.76765
G1 X155.703 Y157.069 E3.79844
G1 X155.077 Y157.519 E3.82921
G1 X154.702 Y157.733 E3.84644
G1 X154.212 Y158.045 E3.86963
G1 X153.522 Y158.389 E3.9004
G1 X153.128 Y158.537 E3.9172
G1 X152.803 Y158.701 E3.93173
G1 X152.083 Y158.976 E3.96249
G1 X151.338 Y159.175 E3.99327
G1 X150.618 Y159.291 E4.02237
G1 X150.197 Y159.338 E4.03928
G1 X149.428 Y159.384 E4.07003
G1 X148.657 Y159.35 E4.10083
G1 X148.031 Y159.262 E4.12606
G1 X147.72 Y159.205 E4.13868
G1 X147.016 Y159.04 E4.16754
G1 X146.376 Y158.857 E4.19411
G1 X145.646 Y158.607 E4.2249
G1 X144.946 Y158.283 E4.25569
G1 X144.284 Y157.888 E4.28646
G1 X143.942 Y157.645 E4.3032
G1 X143.308 Y157.167 E4.33489
G1 X142.717 Y156.671 E4.36569
G1 X142.181 Y156.117 E4.39645
G1 X141.523 Y155.241 E4.44018
G1 X141.034 Y154.478 E4.47635
G1 X140.652 Y153.807 E4.50717
G1 X140.342 Y153.102 E4.53791
G1 X140.106 Y152.367 E4.56872
G1 X139.947 Y151.612 E4.59951
G1 X139.868 Y150.845 E4.63029
G1 X139.861 Y150.261 E4.6536
G1 X139.886 Y149.34 E4.69037
G1 X139.947 Y148.571 E4.72116
G1 X140.087 Y147.813 E4.75192
G1 X140.245 Y147.25 E4.77526
G1 X140.519 Y146.404 E4.81075
G1 X140.794 Y145.683 E4.84155
G1 X141.143 Y144.995 E4.87234
G1 X141.465 Y144.483 E4.89648
G1 X141.7 Y144.141 E4.91305
G1 X142.169 Y143.528 E4.94385
G1 X142.852 Y142.827 E4.98291
M204 S500
G0 F4200 X143.173 Y143.183
M204 S1100
G1 F900 X143.991 Y142.446 E5.02686
G1 X144.571 Y141.977 E5.05663
G1 X145.198 Y141.573 E5.0864
G1 X145.804 Y141.265 E5.11353
G1 X146.054 Y141.153 E5.12446
G1 X146.653 Y140.918 E5.15015
G1 X147.292 Y140.7 E5.17709
G1 X148.01 Y140.497 E5.20687
G1 X148.745 Y140.372 E5.23663
G1 X149.49 Y140.327 E5.26642
G1 X150.235 Y140.362 E5.29619
G1 X150.972 Y140.476 E5.32595
G1 X151.561 Y140.627 E5.35022
G1 X151.997 Y140.759 E5.3684
G1 X152.341 Y140.848 E5.38258
G1 X153.053 Y141.073 E5.41239
G1 X153.736 Y141.372 E5.44214
G1 X154.565 Y141.865 E5.48064
G1 X154.961 Y142.139 E5.49986
G1 X155.551 Y142.595 E5.52962
G1 X156.121 Y143.147 E5.56129
G1 X156.4 Y143.45 E5.57773
G1 X156.875 Y144.026 E5.60753
G1 X157.122 Y144.382 E5.62482
G1 X157.471 Y144.921 E5.65045
G1 X157.843 Y145.568 E5.68024
G1 X158.142 Y146.251 E5.71
G1 X158.368 Y146.962 E5.73977
G1 X158.606 Y148.047 E5.78411
G1 X158.688 Y148.788 E5.81386
G1 X158.691 Y149.534 E5.84364
G1 X158.652 Y149.859 E5.8567
G1 X158.662 Y150.261 E5.87275
G1 X158.602 Y151.004 E5.9025
G1 X158.462 Y151.76 E5.93319
G1 X158.227 Y152.571 E5.96689
G1 X157.944 Y153.261 E5.99665
G1 X157.588 Y153.916 E6.02641
G1 X157.489 Y154.06 E6.03338
G1 X157.168 Y154.632 E6.05956
G1 X156.857 Y155.102 E6.08206
G1 X156.413 Y155.701 E6.11181
G1 X155.907 Y156.249 E6.14158
G1 X155.345 Y156.74 E6.17137
G1 X154.734 Y157.168 E6.20114
G1 X154.454 Y157.323 E6.21392
G1 X153.954 Y157.639 E6.23753
G1 X153.285 Y157.969 E6.2673
G1 X152.936 Y158.096 E6.28212
G1 X152.587 Y158.272 E6.29772
G1 X151.889 Y158.534 E6.32748
G1 X151.166 Y158.72 E6.35727
G1 X150.565 Y158.814 E6.38155
G1 X150.144 Y158.861 E6.39846
G1 X149.4 Y158.904 E6.4282
G1 X148.655 Y158.867 E6.45798
G1 X148.117 Y158.79 E6.47967
G1 X147.806 Y158.733 E6.49229
G1 X147.148 Y158.579 E6.51926
G1 X146.508 Y158.396 E6.54583
G1 X145.802 Y158.153 E6.57563
G1 X145.127 Y157.835 E6.60541
G1 X144.231 Y157.261 E6.64788
G1 X143.597 Y156.783 E6.67957
G1 X143.026 Y156.303 E6.70934
G1 X142.51 Y155.764 E6.73912
G1 X141.927 Y154.982 E6.77805
G1 X141.438 Y154.219 E6.81422
G1 X141.07 Y153.57 E6.844
G1 X140.773 Y152.885 E6.8738
G1 X140.551 Y152.173 E6.90357
G1 X140.407 Y151.441 E6.93334
G1 X140.342 Y150.698 E6.96311
G1 X140.341 Y150.274 E6.98003
G1 X140.366 Y149.353 E7.0168
G1 X140.426 Y148.61 E7.04656
G1 X140.565 Y147.877 E7.07633
G1 X140.702 Y147.397 E7.09626
G1 X140.976 Y146.551 E7.13175
G1 X141.243 Y145.855 E7.1615
G1 X141.584 Y145.192 E7.19126
G1 X141.861 Y144.754 E7.21194
G1 X142.096 Y144.412 E7.2285
G1 X142.55 Y143.821 E7.25825
G1 X143.173 Y143.183 E7.29384
M204 S500
G0 F4200 X143.495 Y143.54
M204 S1100
G1 F900 X144.313 Y142.803 E7.33778
G1 X144.873 Y142.351 E7.36651
G1 X145.48 Y141.965 E7.39522
G1 X146.001 Y141.703 E7.41849
G1 X146.251 Y141.591 E7.42943
G1 X146.808 Y141.372 E7.45331
G1 X147.447 Y141.154 E7.48026
G1 X148.14 Y140.96 E7.50898
G1 X148.85 Y140.844 E7.5377
G1 X149.569 Y140.807 E7.56643
G1 X150.287 Y140.85 E7.59514
G1 X150.996 Y140.973 E7.62386
G1 X151.422 Y141.087 E7.64146
G1 X151.854 Y141.218 E7.65948
G1 X152.222 Y141.313 E7.67465
G1 X152.907 Y141.531 E7.70334
G1 X153.565 Y141.824 E7.73209
G1 X154.292 Y142.259 E7.7659
G1 X154.688 Y142.533 E7.78512
G1 X155.256 Y142.975 E7.81385
G1 X155.768 Y143.473 E7.84235
G1 X156.047 Y143.776 E7.85879
G1 X156.504 Y144.331 E7.88749
G1 X156.719 Y144.643 E7.90261
G1 X157.068 Y145.182 E7.92824
G1 X157.425 Y145.807 E7.95697
G1 X157.711 Y146.468 E7.98571
G1 X157.921 Y147.156 E8.01442
G1 X158.136 Y148.15 E8.05501
G1 X158.212 Y148.866 E8.08375
G1 X158.208 Y149.586 E8.11249
G1 X158.172 Y149.869 E8.12387
G1 X158.182 Y150.273 E8.14
G1 X158.119 Y150.99 E8.16873
G1 X157.994 Y151.657 E8.19581
G1 X157.766 Y152.436 E8.22821
G1 X157.489 Y153.1 E8.25693
G1 X157.139 Y153.73 E8.28569
G1 X157.068 Y153.831 E8.29062
G1 X156.768 Y154.367 E8.31513
G1 X156.457 Y154.837 E8.33763
G1 X156.027 Y155.414 E8.36635
G1 X155.536 Y155.94 E8.39507
G1 X154.989 Y156.408 E8.4238
G1 X154.394 Y156.813 E8.45253
G1 X154.204 Y156.913 E8.4611
G1 X153.698 Y157.233 E8.48499
G1 X153.05 Y157.547 E8.51373
G1 X152.744 Y157.655 E8.52668
G1 X152.371 Y157.842 E8.54334
G1 X151.696 Y158.091 E8.57205
G1 X150.997 Y158.264 E8.60079
G1 X150.512 Y158.337 E8.62037
G1 X150.091 Y158.384 E8.63727
G1 X149.372 Y158.424 E8.66601
G1 X148.654 Y158.384 E8.69472
G1 X148.204 Y158.318 E8.71287
G1 X147.893 Y158.261 E8.72549
G1 X147.28 Y158.117 E8.75062
G1 X146.64 Y157.934 E8.77719
G1 X145.96 Y157.698 E8.80592
G1 X145.31 Y157.388 E8.83466
G1 X144.52 Y156.878 E8.87219
G1 X143.886 Y156.4 E8.90388
G1 X143.336 Y155.936 E8.9326
G1 X142.841 Y155.413 E8.96134
G1 X142.331 Y154.723 E8.99559
G1 X141.842 Y153.96 E9.03176
G1 X141.488 Y153.333 E9.06049
G1 X141.206 Y152.671 E9.08921
G1 X140.998 Y151.982 E9.11794
G1 X140.869 Y151.274 E9.14666
G1 X140.82 Y150.287 E9.1861
G1 X140.845 Y149.366 E9.22288
G1 X140.905 Y148.649 E9.25159
G1 X141.043 Y147.943 E9.2803
G1 X141.158 Y147.545 E9.29684
G1 X141.432 Y146.699 E9.33233
G1 X141.692 Y146.028 E9.36105
G1 X142.024 Y145.39 E9.38976
G1 X142.256 Y145.026 E9.40699
G1 X142.491 Y144.684 E9.42355
G1 X142.931 Y144.115 E9.45226
G1 X143.495 Y143.54 E9.4844
M204 S500
G0 F4200 X143.816 Y143.896
M204 S1100
G1 F900 X144.634 Y143.159 E9.52835
G1 X145.174 Y142.726 E9.55597
G1 X145.761 Y142.358 E9.58363
G1 X146.197 Y142.141 E9.60306
G1 X146.447 Y142.029 E9.614
G1 X146.963 Y141.826 E9.63613
G1 X147.602 Y141.608 E9.66307
G1 X148.269 Y141.423 E9.6907
G1 X148.953 Y141.316 E9.71833
G1 X149.645 Y141.288 E9.74597
G1 X150.336 Y141.34 E9.77363
G1 X151.282 Y141.546 E9.81227
G1 X151.733 Y141.683 E9.83109
G1 X152.102 Y141.778 E9.84629
G1 X152.761 Y141.989 E9.87391
G1 X153.392 Y142.275 E9.90156
G1 X154.019 Y142.654 E9.9308
G1 X154.415 Y142.928 E9.95002
G1 X154.961 Y143.354 E9.97766
G1 X155.415 Y143.798 E10.00301
G1 X155.694 Y144.101 E10.01945
G1 X156.316 Y144.904 E10.05999
G1 X156.665 Y145.443 E10.08562
G1 X157.008 Y146.045 E10.11327
G1 X157.278 Y146.682 E10.14088
G1 X157.519 Y147.576 E10.17784
G1 X157.667 Y148.253 E10.2055
G1 X157.735 Y148.942 E10.23313
G1 X157.723 Y149.634 E10.26075
G1 X157.692 Y149.866 E10.2701
G1 X157.701 Y150.284 E10.28678
G1 X157.636 Y150.973 E10.3144
G1 X157.524 Y151.554 E10.33802
G1 X157.305 Y152.301 E10.36909
G1 X157.034 Y152.938 E10.39672
G1 X156.691 Y153.54 E10.42437
G1 X156.651 Y153.597 E10.42715
G1 X156.368 Y154.102 E10.45026
G1 X156.057 Y154.572 E10.47275
G1 X155.642 Y155.127 E10.50041
G1 X155.166 Y155.63 E10.52805
G1 X154.635 Y156.074 E10.55568
G1 X154.057 Y156.455 E10.58331
G1 X153.934 Y156.517 E10.5888
G1 X153.442 Y156.826 E10.61199
G1 X152.816 Y157.124 E10.63966
G1 X152.554 Y157.214 E10.65072
G1 X152.156 Y157.412 E10.66846
G1 X151.505 Y157.648 E10.6961
G1 X150.831 Y157.807 E10.72374
G1 X150.459 Y157.86 E10.73874
G1 X150.038 Y157.907 E10.75564
G1 X149.346 Y157.944 E10.7833
G1 X148.655 Y157.901 E10.81093
G1 X148.29 Y157.846 E10.82567
G1 X147.979 Y157.789 E10.83829
G1 X147.411 Y157.656 E10.86157
G1 X146.771 Y157.473 E10.88814
G1 X146.118 Y157.244 E10.91576
G1 X145.495 Y156.942 E10.94339
G1 X144.809 Y156.495 E10.97607
G1 X144.175 Y156.017 E11.00776
G1 X143.647 Y155.569 E11.0354
G1 X143.174 Y155.063 E11.06304
G1 X142.735 Y154.464 E11.09268
G1 X142.246 Y153.701 E11.12885
G1 X141.907 Y153.097 E11.1565
G1 X141.639 Y152.458 E11.18415
G1 X141.447 Y151.793 E11.21178
G1 X141.333 Y151.11 E11.23942
G1 X141.3 Y150.3 E11.27177
G1 X141.325 Y149.379 E11.30854
G1 X141.384 Y148.689 E11.33618
G1 X141.615 Y147.693 E11.37699
G1 X141.889 Y146.847 E11.41248
G1 X142.14 Y146.202 E11.44011
G1 X142.464 Y145.59 E11.46775
G1 X142.652 Y145.298 E11.48161
G1 X142.887 Y144.956 E11.49817
G1 X143.311 Y144.409 E11.52579
G1 X143.816 Y143.896 E11.55452
M204 S500
G0 F4200 X144.137 Y144.253
M204 S1100
G1 F900 X144.955 Y143.516 E11.59847
G1 X145.474 Y143.102 E11.62496
G1 X146.04 Y142.753 E11.6515
G1 X146.393 Y142.579 E11.66721
G1 X146.643 Y142.467 E11.67815
G1 X147.118 Y142.281 E11.69851
G1 X147.757 Y142.063 E11.72545
G1 X148.397 Y141.886 E11.75196
G1 X149.054 Y141.788 E11.77847
G1 X149.718 Y141.77 E11.80498
G1 X150.379 Y141.831 E11.83147
G1 X151.143 Y142.005 E11.86275
G1 X151.618 Y142.149 E11.88256
G1 X151.982 Y142.243 E11.89756
G1 X152.614 Y142.447 E11.92407
G1 X153.217 Y142.725 E11.95057
G1 X153.746 Y143.049 E11.97533
G1 X154.142 Y143.323 E11.99455
G1 X154.664 Y143.733 E12.02104
G1 X155.062 Y144.123 E12.04328
G1 X155.341 Y144.426 E12.05972
G1 X155.914 Y145.165 E12.09704
G1 X156.263 Y145.704 E12.12267
G1 X156.589 Y146.282 E12.14916
G1 X156.844 Y146.895 E12.17566
G1 X157.057 Y147.705 E12.20908
G1 X157.197 Y148.355 E12.23562
G1 X157.257 Y149.016 E12.26211
G1 X157.238 Y149.68 E12.28862
G1 X157.212 Y149.866 E12.29612
G1 X157.22 Y150.294 E12.31321
G1 X157.153 Y150.955 E12.33972
G1 X157.033 Y151.528 E12.36309
G1 X156.844 Y152.164 E12.38957
G1 X156.579 Y152.774 E12.41611
G1 X156.243 Y153.347 E12.44263
G1 X155.967 Y153.837 E12.46507
G1 X155.656 Y154.307 E12.48756
G1 X155.257 Y154.838 E12.51407
G1 X154.797 Y155.317 E12.54058
G1 X154.283 Y155.737 E12.56707
G1 X153.722 Y156.093 E12.59359
G1 X153.672 Y156.116 E12.59579
G1 X153.186 Y156.418 E12.61863
G1 X152.585 Y156.7 E12.64512
G1 X152.366 Y156.772 E12.65432
G1 X151.942 Y156.982 E12.67321
G1 X151.316 Y157.203 E12.6997
G1 X150.405 Y157.383 E12.73677
G1 X149.984 Y157.43 E12.75367
G1 X149.321 Y157.464 E12.78017
G1 X148.377 Y157.374 E12.81802
G1 X148.066 Y157.317 E12.83064
G1 X147.543 Y157.194 E12.85208
G1 X146.903 Y157.011 E12.87865
G1 X146.277 Y156.791 E12.90513
G1 X145.682 Y156.496 E12.93164
G1 X145.098 Y156.112 E12.95953
G1 X144.464 Y155.634 E12.99123
G1 X143.959 Y155.203 E13.01772
G1 X143.509 Y154.714 E13.04425
G1 X143.14 Y154.205 E13.06934
G1 X142.651 Y153.442 E13.10551
G1 X142.326 Y152.862 E13.13205
G1 X142.074 Y152.247 E13.15857
G1 X141.898 Y151.607 E13.18506
G1 X141.8 Y150.95 E13.21158
