;FLAVOR:Marlin
;TIME:244
;Filament used: 0.0841701m
;Layer height: 0.2
;MINX:139.804
;MINY:139.786
;MINZ:0.2
;MAXX:160.188
;MAXY:160.132
;MAXZ:7.4
;Generated with Cura_SteamEngine 5.2.2
M140 S70
M105
M190 S70
M104 S220
M105
M109 S220
M82 ;absolute extrusion mode
M201 X500.00 Y500.00 Z100.00 E5000.00 ;Setup machine max acceleration
M203 X500.00 Y500.00 Z10.00 E50.00 ;Setup machine max feedrate
M204 P500.00 R1000.00 T500.00 ;Setup Print/Retract/Travel acceleration
M205 X8.00 Y8.00 Z0.40 E5.00 ;Setup Jerk
M220 S100 ;Reset Feedrate
M221 S100 ;Reset Flowrate

G28 ;Home

G92 E0 ;Reset Extruder
G1 Z2.0 F3000 ;Move Z Axis up
G1 X10.1 Y20 Z0.28 F5000.0 ;Move to start position
G1 X10.1 Y200.0 Z0.28 F1500.0 E15 ;Draw the first line
G1 X10.4 Y200.0 Z0.28 F5000.0 ;Move to side a little
G1 X10.4 Y20 Z0.28 F1500.0 E30 ;Draw the second line
G92 E0 ;Reset Extruder
G1 Z2.0 F3000 ;Move Z Axis up
G92 E0
G92 E0
G1 F600 E-0.6
;LAYER_COUNT:37
;LAYER:0
M107
M204 S500
M205 X15 Y15
G0 F4200 X143.322 Y142.307 Z0.2
M204 S1100
;TYPE:SKIRT
G1 F600 E0
G1 F900 X143.928 Y141.791 E0.03177
G1 X144.583 Y141.338 E0.06355
G1 X145.279 Y140.953 E0.0953
G1 X146.011 Y140.641 E0.12706
G1 X146.524 Y140.471 E0.14863
G1 X147.767 Y140.106 E0.20033
G1 X148.54 Y139.92 E0.23207
G1 X149.329 Y139.813 E0.26384
G1 X150.124 Y139.786 E0.29559
G1 X150.918 Y139.839 E0.32735
G1 X151.703 Y139.971 E0.35912
G1 X152.229 Y140.106 E0.3808
G1 X153.472 Y140.471 E0.4325
G1 X154.224 Y140.733 E0.46429
G1 X154.945 Y141.069 E0.49604
G1 X155.629 Y141.476 E0.5278
G1 X156.268 Y141.95 E0.55956
G1 X156.857 Y142.485 E0.59132
G1 X157.224 Y142.881 E0.61286
G1 X158.073 Y143.86 E0.66458
G1 X158.564 Y144.487 E0.69637
G1 X158.989 Y145.159 E0.7281
G1 X159.345 Y145.871 E0.75988
G1 X159.627 Y146.615 E0.79163
G1 X159.833 Y147.384 E0.82341
G1 X159.929 Y147.92 E0.84514
G1 X160.114 Y149.204 E0.89692
G1 X160.188 Y149.996 E0.92867
G1 X160.182 Y150.792 E0.96044
G1 X160.096 Y151.583 E0.99219
G1 X159.931 Y152.361 E1.02393
G1 X159.689 Y153.119 E1.05569
G1 X159.478 Y153.626 E1.07761
G1 X158.94 Y154.803 E1.12926
G1 X158.573 Y155.509 E1.16102
G1 X158.138 Y156.175 E1.19277
G1 X157.637 Y156.793 E1.22452
G1 X157.077 Y157.359 E1.2563
G1 X156.464 Y157.865 E1.28803
G1 X156.023 Y158.17 E1.30943
G1 X154.932 Y158.872 E1.36121
G1 X154.242 Y159.269 E1.39298
G1 X153.515 Y159.594 E1.42476
G1 X152.76 Y159.845 E1.45652
G1 X151.984 Y160.018 E1.48825
G1 X151.193 Y160.113 E1.52005
G1 X150.646 Y160.132 E1.54189
G1 X149.35 Y160.132 E1.59362
G1 X148.555 Y160.092 E1.62539
G1 X147.769 Y159.973 E1.65712
G1 X146.998 Y159.775 E1.68889
G1 X146.251 Y159.5 E1.72066
G1 X145.535 Y159.153 E1.75241
G1 X145.064 Y158.872 E1.7743
G1 X143.973 Y158.17 E1.82608
G1 X143.327 Y157.707 E1.85781
G1 X142.73 Y157.18 E1.88959
G1 X142.189 Y156.597 E1.92133
G1 X141.709 Y155.962 E1.9531
G1 X141.295 Y155.282 E1.98488
G1 X141.056 Y154.803 E2.00624
G1 X140.518 Y153.626 E2.05789
G1 X140.224 Y152.886 E2.08967
G1 X140.005 Y152.121 E2.12143
G1 X139.865 Y151.338 E2.15318
G1 X139.804 Y150.544 E2.18496
G1 X139.823 Y149.749 E2.2167
G1 X139.882 Y149.204 E2.23858
G1 X140.067 Y147.92 E2.29036
G1 X140.22 Y147.139 E2.32212
G1 X140.45 Y146.377 E2.35389
G1 X140.756 Y145.642 E2.38567
G1 X141.134 Y144.942 E2.41742
G1 X141.58 Y144.283 E2.44918
G1 X141.923 Y143.86 E2.47091
G1 X142.772 Y142.881 E2.52264
G1 X143.322 Y142.307 E2.55436
M204 S500
G0 F4200 X143.669 Y142.64
M204 S1100
G1 F900 X144.258 Y142.143 E2.58512
G1 X144.896 Y141.709 E2.61592
G1 X145.575 Y141.344 E2.64669
G1 X146.289 Y141.051 E2.67749
G1 X146.659 Y140.931 E2.69302
G1 X147.902 Y140.566 E2.74472
G1 X148.652 Y140.388 E2.77549
G1 X149.417 Y140.288 E2.80628
G1 X150.188 Y140.267 E2.83706
G1 X150.957 Y140.327 E2.86785
G1 X151.715 Y140.466 E2.89861
G1 X152.094 Y140.566 E2.91425
G1 X153.337 Y140.931 E2.96596
G1 X154.065 Y141.187 E2.99676
G1 X154.762 Y141.516 E3.02752
G1 X155.422 Y141.916 E3.05832
G1 X156.036 Y142.382 E3.08909
G1 X156.6 Y142.909 E3.11989
G1 X156.862 Y143.196 E3.1354
G1 X157.711 Y144.175 E3.18712
G1 X158.185 Y144.783 E3.21789
G1 X158.594 Y145.437 E3.24868
G1 X158.933 Y146.129 E3.27944
G1 X159.199 Y146.853 E3.31022
G1 X159.388 Y147.601 E3.34101
G1 X159.454 Y147.988 E3.35668
G1 X159.639 Y149.272 E3.40846
G1 X159.709 Y150.04 E3.43924
G1 X159.7 Y150.811 E3.47001
G1 X159.61 Y151.577 E3.5008
G1 X159.442 Y152.33 E3.53159
G1 X159.197 Y153.061 E3.56236
G1 X159.042 Y153.426 E3.57819
G1 X158.504 Y154.603 E3.62984
G1 X158.147 Y155.287 E3.66063
G1 X157.722 Y155.93 E3.6914
G1 X157.232 Y156.526 E3.72219
G1 X156.683 Y157.068 E3.75298
G1 X155.763 Y157.767 E3.7991
G1 X154.672 Y158.469 E3.85088
G1 X154.003 Y158.852 E3.88164
G1 X153.297 Y159.164 E3.91245
G1 X152.563 Y159.401 E3.94324
G1 X151.809 Y159.561 E3.974
G1 X151.042 Y159.641 E4.00478
G1 X150.646 Y159.652 E4.02059
G1 X149.35 Y159.652 E4.07232
G1 X148.58 Y159.612 E4.10309
G1 X147.818 Y159.493 E4.13387
G1 X147.072 Y159.295 E4.16468
G1 X146.351 Y159.021 E4.19546
G1 X145.663 Y158.674 E4.22622
G1 X145.324 Y158.469 E4.24203
G1 X144.233 Y157.767 E4.29381
G1 X143.607 Y157.316 E4.3246
G1 X143.031 Y156.804 E4.35536
G1 X142.511 Y156.234 E4.38615
G1 X142.053 Y155.613 E4.41695
G1 X141.492 Y154.603 E4.46306
G1 X140.954 Y153.426 E4.51472
G1 X140.671 Y152.709 E4.54548
G1 X140.462 Y151.966 E4.57629
G1 X140.332 Y151.206 E4.60706
G1 X140.282 Y150.436 E4.63786
G1 X140.311 Y149.666 E4.66861
G1 X140.357 Y149.272 E4.68444
G1 X140.542 Y147.988 E4.73622
G1 X140.691 Y147.231 E4.76701
G1 X140.918 Y146.494 E4.79779
G1 X141.22 Y145.785 E4.82855
G1 X141.594 Y145.11 E4.85935
G1 X142.036 Y144.478 E4.89013
G1 X142.285 Y144.175 E4.90578
G1 X143.134 Y143.196 E4.9575
G1 X143.669 Y142.64 E4.9883
M204 S500
G0 F4200 X144.015 Y142.974
M204 S1100
G1 F900 X144.588 Y142.496 E5.01808
G1 X145.208 Y142.082 E5.04784
G1 X145.869 Y141.736 E5.07762
G1 X146.794 Y141.392 E5.11701
G1 X148.037 Y141.027 E5.16871
G1 X148.763 Y140.855 E5.19849
G1 X149.503 Y140.763 E5.22825
G1 X150.249 Y140.75 E5.25803
G1 X150.992 Y140.816 E5.2878
G1 X151.959 Y141.027 E5.32731
G1 X153.202 Y141.392 E5.37901
G1 X153.905 Y141.64 E5.40876
G1 X154.578 Y141.962 E5.43854
G1 X155.213 Y142.354 E5.46833
G1 X155.802 Y142.812 E5.4981
G1 X156.499 Y143.51 E5.53747
G1 X157.348 Y144.489 E5.58919
G1 X157.806 Y145.078 E5.61897
G1 X158.198 Y145.712 E5.64872
G1 X158.52 Y146.385 E5.6785
G1 X158.768 Y147.089 E5.70829
G1 X158.979 Y148.056 E5.74779
G1 X159.164 Y149.34 E5.79957
G1 X159.231 Y150.083 E5.82935
G1 X159.217 Y150.829 E5.85913
G1 X159.124 Y151.569 E5.88889
G1 X158.953 Y152.295 E5.91866
G1 X158.605 Y153.226 E5.95833
G1 X158.067 Y154.403 E6.00998
G1 X157.721 Y155.064 E6.03976
G1 X157.306 Y155.684 E6.06954
G1 X156.828 Y156.256 E6.09929
G1 X156.29 Y156.774 E6.1291
G1 X155.503 Y157.363 E6.16833
G1 X154.412 Y158.065 E6.22011
G1 X153.764 Y158.434 E6.24987
G1 X153.08 Y158.732 E6.27965
G1 X152.368 Y158.955 E6.30943
G1 X151.637 Y159.101 E6.33918
G1 X150.646 Y159.172 E6.37884
G1 X149.35 Y159.172 E6.43056
G1 X148.605 Y159.132 E6.46034
G1 X147.869 Y159.013 E6.4901
G1 X147.15 Y158.815 E6.51986
G1 X146.456 Y158.542 E6.54963
G1 X145.584 Y158.065 E6.5893
G1 X144.493 Y157.363 E6.64108
G1 X143.888 Y156.926 E6.67086
G1 X143.334 Y156.428 E6.7006
G1 X142.836 Y155.872 E6.73039
G1 X142.4 Y155.267 E6.76015
G1 X141.929 Y154.403 E6.79943
G1 X141.391 Y153.226 E6.85108
G1 X141.118 Y152.532 E6.88084
G1 X140.92 Y151.813 E6.91061
G1 X140.801 Y151.077 E6.94037
G1 X140.761 Y150.332 E6.97014
G1 X140.832 Y149.34 E7.00984
G1 X141.017 Y148.056 E7.06161
G1 X141.163 Y147.325 E7.09137
G1 X141.386 Y146.613 E7.12114
G1 X141.684 Y145.929 E7.15092
G1 X142.054 Y145.281 E7.1807
G1 X142.648 Y144.489 E7.22022
G1 X143.497 Y143.51 E7.27194
G1 X144.015 Y142.974 E7.30169
M204 S500
G0 F4200 X144.36 Y143.308
M204 S1100
G1 F900 X144.916 Y142.85 E7.33044
G1 X145.518 Y142.456 E7.35915
G1 X146.161 Y142.132 E7.38789
G1 X146.929 Y141.853 E7.4205
G1 X148.172 Y141.488 E7.47221
G1 X148.873 Y141.323 E7.50095
G1 X149.588 Y141.238 E7.52969
G1 X150.307 Y141.232 E7.55839
G1 X151.023 Y141.307 E7.58712
G1 X151.824 Y141.488 E7.6199
G1 X153.067 Y141.853 E7.6716
G1 X153.745 Y142.093 E7.70031
G1 X154.392 Y142.408 E7.72903
G1 X155.001 Y142.792 E7.75777
G1 X155.563 Y143.242 E7.7865
G1 X156.137 Y143.825 E7.81915
G1 X156.986 Y144.804 E7.87088
G1 X157.426 Y145.373 E7.89958
G1 X157.801 Y145.987 E7.9283
G1 X158.105 Y146.639 E7.95701
G1 X158.335 Y147.321 E7.98574
G1 X158.504 Y148.125 E8.01853
G1 X158.689 Y149.409 E8.0703
G1 X158.752 Y150.126 E8.09903
G1 X158.735 Y150.845 E8.12774
G1 X158.638 Y151.559 E8.1565
G1 X158.463 Y152.257 E8.18522
G1 X158.169 Y153.027 E8.21811
G1 X157.631 Y154.204 E8.26976
G1 X157.295 Y154.841 E8.29851
G1 X156.892 Y155.437 E8.32722
G1 X156.424 Y155.984 E8.35596
G1 X155.899 Y156.476 E8.38467
G1 X155.243 Y156.959 E8.41719
G1 X154.152 Y157.661 E8.46897
G1 X153.526 Y158.017 E8.49771
G1 X152.865 Y158.3 E8.52641
G1 X152.176 Y158.509 E8.55514
G1 X151.468 Y158.64 E8.58388
G1 X150.646 Y158.692 E8.61675
G1 X149.35 Y158.692 E8.66848
G1 X148.631 Y158.652 E8.69722
G1 X147.922 Y158.533 E8.72592
G1 X147.23 Y158.335 E8.75464
G1 X146.564 Y158.062 E8.78337
G1 X145.844 Y157.661 E8.81626
G1 X144.753 Y156.959 E8.86804
G1 X144.17 Y156.537 E8.89677
G1 X143.638 Y156.052 E8.9255
G1 X143.162 Y155.512 E8.95423
G1 X142.75 Y154.922 E8.98295
G1 X142.365 Y154.204 E9.01547
G1 X141.827 Y153.027 E9.06712
G1 X141.565 Y152.357 E9.09583
G1 X141.379 Y151.662 E9.12455
G1 X141.27 Y150.95 E9.1533
G1 X141.242 Y150.231 E9.18202
G1 X141.307 Y149.409 E9.21493
G1 X141.492 Y148.125 E9.2667
G1 X141.634 Y147.419 E9.29545
G1 X141.854 Y146.734 E9.32416
G1 X142.148 Y146.077 E9.35289
G1 X142.513 Y145.457 E9.3816
G1 X143.01 Y144.804 E9.41436
G1 X143.859 Y143.825 E9.46608
G1 X144.36 Y143.308 E9.49481
M204 S500
G0 F4200 X144.705 Y143.643
M204 S1100
G1 F900 X145.242 Y143.206 E9.52244
G1 X145.826 Y142.833 E9.5501
G1 X146.449 Y142.531 E9.57773
G1 X147.065 Y142.313 E9.60381
G1 X148.308 Y141.948 E9.65552
G1 X148.982 Y141.792 E9.68313
G1 X149.67 Y141.714 E9.71077
G1 X150.363 Y141.716 E9.73843
G1 X151.05 Y141.798 E9.76604
G1 X151.688 Y141.948 E9.7922
G1 X152.931 Y142.313 E9.8439
G1 X153.584 Y142.546 E9.87158
G1 X154.204 Y142.853 E9.89919
G1 X154.786 Y143.229 E9.92684
G1 X155.32 Y143.67 E9.95449
G1 X155.774 Y144.139 E9.98054
G1 X156.623 Y145.118 E10.03226
G1 X157.046 Y145.667 E10.05992
G1 X157.402 Y146.26 E10.08753
G1 X157.688 Y146.891 E10.11518
G1 X157.9 Y147.55 E10.14281
G1 X158.029 Y148.193 E10.16898
G1 X158.214 Y149.477 E10.22076
G1 X158.273 Y150.167 E10.2484
G1 X158.252 Y150.86 E10.27607
G1 X158.151 Y151.545 E10.3037
G1 X157.973 Y152.214 E10.33133
G1 X157.732 Y152.827 E10.35762
G1 X157.194 Y154.004 E10.40927
G1 X156.87 Y154.617 E10.43695
G1 X156.478 Y155.187 E10.46456
G1 X156.023 Y155.709 E10.4922
G1 X155.51 Y156.175 E10.51986
G1 X154.984 Y156.556 E10.54578
G1 X153.893 Y157.258 E10.59756
G1 X153.29 Y157.598 E10.62519
G1 X152.651 Y157.867 E10.65286
G1 X151.986 Y158.06 E10.6805
G1 X151.304 Y158.176 E10.70811
G1 X150.646 Y158.212 E10.73441
G1 X149.35 Y158.212 E10.78614
G1 X148.659 Y158.172 E10.81376
G1 X147.976 Y158.053 E10.84143
G1 X147.313 Y157.855 E10.86905
G1 X146.676 Y157.583 E10.89669
G1 X146.103 Y157.258 E10.92299
G1 X145.012 Y156.556 E10.97477
G1 X144.453 Y156.148 E11.00239
G1 X143.943 Y155.678 E11.03007
G1 X143.492 Y155.153 E11.05769
G1 X143.104 Y154.58 E11.08531
G1 X142.802 Y154.004 E11.11127
G1 X142.264 Y152.827 E11.16292
G1 X142.013 Y152.182 E11.19054
G1 X141.838 Y151.512 E11.21818
G1 X141.741 Y150.826 E11.24583
G1 X141.724 Y150.134 E11.27346
G1 X141.782 Y149.477 E11.29979
G1 X141.967 Y148.193 E11.35156
G1 X142.105 Y147.515 E11.37918
G1 X142.321 Y146.857 E11.40682
G1 X142.611 Y146.228 E11.43446
G1 X142.971 Y145.636 E11.46212
G1 X143.373 Y145.118 E11.48829
G1 X144.222 Y144.139 E11.54001
G1 X144.705 Y143.643 E11.56764
M204 S500
G0 F4200 X145.049 Y143.979
M204 S1100
G1 F900 X145.568 Y143.563 E11.59419
G1 X146.132 Y143.213 E11.62068
G1 X146.734 Y142.933 E11.64718
G1 X147.2 Y142.774 E11.66683
G1 X148.443 Y142.409 E11.71854
G1 X149.09 Y142.26 E11.74504
G1 X149.751 Y142.191 E11.77156
G1 X150.415 Y142.201 E11.79807
G1 X151.073 Y142.291 E11.82457
G1 X151.553 Y142.409 E11.8443
G1 X152.796 Y142.774 E11.89601
G1 X153.421 Y142.999 E11.92252
G1 X154.014 Y143.297 E11.94901
G1 X154.568 Y143.665 E11.97555
G1 X155.073 Y144.097 E12.00208
G1 X155.411 Y144.453 E12.02167
G1 X156.26 Y145.432 E12.07339
G1 X156.664 Y145.96 E12.09992
G1 X157.002 Y146.531 E12.12641
G1 X157.269 Y147.14 E12.15295
G1 X157.461 Y147.776 E12.17946
G1 X157.554 Y148.262 E12.19921
G1 X157.739 Y149.546 E12.25099
G1 X157.794 Y150.208 E12.2775
G1 X157.769 Y150.872 E12.30402
G1 X157.664 Y151.527 E12.3305
G1 X157.482 Y152.166 E12.35702
G1 X157.295 Y152.628 E12.37691
G1 X156.757 Y153.805 E12.42856
G1 X156.445 Y154.391 E12.45506
G1 X156.065 Y154.936 E12.48157
G1 X155.622 Y155.431 E12.50809
G1 X155.123 Y155.869 E12.53459
G1 X154.724 Y156.152 E12.55411
G1 X153.633 Y156.854 E12.60589
G1 X153.054 Y157.179 E12.63239
G1 X152.44 Y157.432 E12.6589
G1 X151.8 Y157.61 E12.68541
G1 X151.143 Y157.71 E12.71193
G1 X150.646 Y157.732 E12.73179
G1 X149.35 Y157.732 E12.78352
G1 X148.687 Y157.692 E12.81003
G1 X148.034 Y157.573 E12.83652
G1 X147.399 Y157.376 E12.86305
G1 X146.793 Y157.104 E12.88957
G1 X146.363 Y156.854 E12.90942
G1 X145.272 Y156.152 E12.9612
G1 X144.736 Y155.76 E12.9877
G1 X144.251 Y155.306 E13.01422
G1 X143.824 Y154.797 E13.04073
G1 X143.462 Y154.24 E13.06725
G1 X143.239 Y153.805 E13.08676
G1 X142.701 Y152.628 E13.13841
G1 X142.461 Y152.008 E13.16494
G1 X142.298 Y151.364 E13.19146
G1 X142.214 Y150.705 E13.21797
G1 X142.209 Y150.041 E13.24447
G1 X142.257 Y149.546 E13.26432
G1 X142.442 Y148.262 E13.3161
G1 X142.577 Y147.611 E13.34264
G1 X142.788 Y146.982 E13.36912
G1 X143.073 Y146.382 E13.39563
G1 X143.429 Y145.821 E13.42215
G1 X143.736 Y145.432 E13.44192
G1 X144.585 Y144.453 E13.49364
G1 X145.049 Y143.979 E13.52012
M204 S500
G0 F4200 X145.393 Y144.316
M204 S1100
G1 F900 X145.891 Y143.923 E13.54544
G1 X146.435 Y143.596 E13.57077
G1 X147.016 Y143.34 E13.59611
G1 X147.335 Y143.234 E13.60953
G1 X148.578 Y142.869 E13.66123
G1 X149.197 Y142.729 E13.68656
G1 X149.829 Y142.668 E13.7119
G1 X150.463 Y142.687 E13.73722
G1 X151.09 Y142.785 E13.76255
G1 X151.418 Y142.869 E13.77606
G1 X152.661 Y143.234 E13.82777
G1 X153.257 Y143.451 E13.85308
G1 X153.822 Y143.741 E13.87843
G1 X154.346 Y144.1 E13.90378
G1 X154.82 Y144.521 E13.92909
G1 X155.049 Y144.768 E13.94253
G1 X155.898 Y145.747 E13.99425
G1 X156.282 Y146.252 E14.01957
G1 X156.601 Y146.801 E14.04491
G1 X156.848 Y147.385 E14.07022
G1 X157.019 Y147.997 E14.09558
G1 X157.078 Y148.33 E14.10908
G1 X157.263 Y149.614 E14.16086
G1 X157.314 Y150.247 E14.1862
G1 X157.285 Y150.881 E14.21153
G1 X157.177 Y151.506 E14.23685
G1 X156.99 Y152.113 E14.2622
G1 X156.859 Y152.428 E14.27581
G1 X156.321 Y153.605 E14.32747
G1 X156.021 Y154.165 E14.35282
G1 X155.654 Y154.682 E14.37813
G1 X155.224 Y155.149 E14.40346
G1 X154.739 Y155.559 E14.42881
G1 X154.464 Y155.748 E14.44213
G1 X153.373 Y156.45 E14.49391
G1 X152.819 Y156.76 E14.51925
G1 X152.23 Y156.997 E14.54459
G1 X151.616 Y157.158 E14.56992
G1 X150.987 Y157.24 E14.59524
G1 X150.646 Y157.252 E14.60886
G1 X149.35 Y157.252 E14.66058
G1 X148.717 Y157.212 E14.6859
G1 X148.093 Y157.093 E14.71125
G1 X147.49 Y156.896 E14.73657
G1 X146.916 Y156.625 E14.7619
G1 X146.623 Y156.45 E14.77553
G1 X145.532 Y155.748 E14.82731
G1 X145.021 Y155.372 E14.85263
G1 X144.561 Y154.934 E14.87798
G1 X144.16 Y154.443 E14.90328
G1 X143.824 Y153.904 E14.92863
G1 X143.675 Y153.605 E14.94196
G1 X143.137 Y152.428 E14.99362
G1 X142.91 Y151.836 E15.01892
G1 X142.759 Y151.219 E15.04427
G1 X142.687 Y150.588 E15.06962
G1 X142.695 Y149.954 E15.09493
G1 X142.733 Y149.614 E15.10858
G1 X142.918 Y148.33 E15.16036
G1 X143.047 Y147.709 E15.18567
G1 X143.254 Y147.109 E15.21101
G1 X143.535 Y146.54 E15.23633
G1 X143.885 Y146.01 E15.26168
G1 X144.098 Y145.747 E15.27519
G1 X144.947 Y144.768 E15.32691
G1 X145.393 Y144.316 E15.35226
M204 S500
G0 F4200 X145.735 Y144.654
M204 S1100
G1 F900 X146.213 Y144.285 E15.37636
G1 X146.735 Y143.982 E15.40045
G1 X147.47 Y143.695 E15.43194
