;FLAVOR:Marlin
;TIME:213
;Filament used: 0.0753508m
;Layer height: 0.2
;MINX:139.903
;MINY:139.882
;MINZ:0.2
;MAXX:160.088
;MAXY:160.032
;MAXZ:7.4
;Generated with Cura_SteamEngine 5.2.2
M140 S70
M105
M190 S70
M104 S220
M105
M109 S220
M82 ;absolute extrusion mode
M201 X500.00 Y500.00 Z100.00 E5000.00 ;Setup machine max acceleration
M203 X500.00 Y500.00 Z10.00 E50.00 ;Setup machine max feedrate
M204 P500.00 R1000.00 T500.00 ;Setup Print/Retract/Travel acceleration
M205 X8.00 Y8.00 Z0.40 E5.00 ;Setup Jerk
M220 S100 ;Reset Feedrate
M221 S100 ;Reset Flowrate

G28 ;Home

G92 E0 ;Reset Extruder
G1 Z2.0 F3000 ;Move Z Axis up
G1 X10.1 Y20 Z0.28 F5000.0 ;Move to start position
G1 X10.1 Y200.0 Z0.28 F1500.0 E15 ;Draw the first line
G1 X10.4 Y200.0 Z0.28 F5000.0 ;Move to side a little
G1 X10.4 Y20 Z0.28 F1500.0 E30 ;Draw the second line
G92 E0 ;Reset Extruder
G1 Z2.0 F3000 ;Move Z Axis up
G92 E0
G92 E0
G1 F600 E-0.6
;LAYER_COUNT:37
;LAYER:0
M107
M204 S500
M205 X15 Y15
G0 F4200 X143.373 Y142.389 Z0.2
M204 S1100
;TYPE:SKIRT
G1 F600 E0
G1 F900 X143.978 Y141.873 E0.03174
G1 X144.633 Y141.42 E0.06352
G1 X145.329 Y141.035 E0.09527
G1 X146.061 Y140.722 E0.12704
G1 X146.579 Y140.55 E0.14883
G1 X147.769 Y140.201 E0.19832
G1 X148.543 Y140.016 E0.23008
G1 X149.332 Y139.909 E0.26186
G1 X150.127 Y139.882 E0.29361
G1 X150.921 Y139.935 E0.32537
G1 X151.705 Y140.067 E0.3571
G1 X152.229 Y140.202 E0.3787
G1 X153.418 Y140.551 E0.42816
G1 X154.169 Y140.813 E0.4599
G1 X154.89 Y141.149 E0.49165
G1 X155.574 Y141.556 E0.52342
G1 X156.213 Y142.029 E0.55515
G1 X156.802 Y142.565 E0.58694
G1 X157.17 Y142.96 E0.60848
G1 X157.982 Y143.896 E0.65794
G1 X158.472 Y144.523 E0.6897
G1 X158.897 Y145.195 E0.72143
G1 X159.253 Y145.907 E0.75321
G1 X159.535 Y146.651 E0.78496
G1 X159.742 Y147.419 E0.81671
G1 X159.839 Y147.963 E0.83876
G1 X160.015 Y149.192 E0.88832
G1 X160.088 Y149.985 E0.9201
G1 X160.081 Y150.78 E0.95183
G1 X159.995 Y151.571 E0.98359
G1 X159.829 Y152.35 E1.01538
G1 X159.586 Y153.107 E1.04711
G1 X159.38 Y153.604 E1.06858
G1 X158.866 Y154.73 E1.11798
G1 X158.499 Y155.436 E1.14974
G1 X158.064 Y156.102 E1.18149
G1 X157.564 Y156.721 E1.21325
G1 X157.004 Y157.287 E1.24503
G1 X156.391 Y157.794 E1.27678
G1 X155.943 Y158.104 E1.29852
G1 X154.899 Y158.775 E1.34806
G1 X154.209 Y159.171 E1.37981
G1 X153.483 Y159.495 E1.41154
G1 X152.727 Y159.746 E1.44333
G1 X151.951 Y159.919 E1.47506
G1 X151.16 Y160.013 E1.50686
G1 X150.617 Y160.032 E1.52854
G1 X149.378 Y160.032 E1.57799
G1 X148.583 Y159.992 E1.60976
G1 X147.797 Y159.873 E1.64149
G1 X147.026 Y159.675 E1.67326
G1 X146.279 Y159.4 E1.70503
G1 X145.563 Y159.053 E1.73679
G1 X145.093 Y158.773 E1.75863
G1 X144.05 Y158.102 E1.80812
G1 X143.403 Y157.638 E1.8399
G1 X142.806 Y157.112 E1.87166
G1 X142.265 Y156.529 E1.9034
G1 X141.785 Y155.894 E1.93517
G1 X141.371 Y155.214 E1.96695
G1 X141.133 Y154.735 E1.98829
G1 X140.618 Y153.609 E2.03771
G1 X140.323 Y152.87 E2.06947
G1 X140.105 Y152.105 E2.10122
G1 X139.964 Y151.321 E2.13301
G1 X139.903 Y150.528 E2.16476
G1 X139.921 Y149.733 E2.1965
G1 X139.981 Y149.186 E2.21846
G1 X140.158 Y147.957 E2.26802
G1 X140.311 Y147.176 E2.29978
G1 X140.541 Y146.414 E2.33155
G1 X140.847 Y145.68 E2.36329
G1 X141.225 Y144.979 E2.39507
G1 X141.671 Y144.321 E2.4268
G1 X142.011 Y143.9 E2.4484
G1 X142.822 Y142.964 E2.49783
G1 X143.373 Y142.389 E2.52962
M204 S500
G0 F4200 X143.72 Y142.722
M204 S1100
G1 F900 X144.309 Y142.224 E2.5604
G1 X144.946 Y141.791 E2.59114
G1 X145.626 Y141.425 E2.62196
G1 X146.339 Y141.132 E2.65273
G1 X146.714 Y141.011 E2.66846
G1 X147.904 Y140.662 E2.71795
G1 X148.655 Y140.483 E2.74877
G1 X149.419 Y140.384 E2.77951
G1 X150.19 Y140.363 E2.8103
G1 X150.959 Y140.423 E2.84108
G1 X151.718 Y140.562 E2.87188
G1 X152.093 Y140.662 E2.88737
G1 X153.282 Y141.011 E2.93683
G1 X154.01 Y141.266 E2.96762
G1 X154.708 Y141.596 E2.99843
G1 X155.367 Y141.995 E3.02918
G1 X155.982 Y142.461 E3.05997
G1 X156.545 Y142.988 E3.09075
G1 X156.807 Y143.275 E3.10626
G1 X157.619 Y144.211 E3.15572
G1 X158.093 Y144.819 E3.18649
G1 X158.502 Y145.472 E3.21724
G1 X158.842 Y146.165 E3.24805
G1 X159.107 Y146.889 E3.27882
G1 X159.296 Y147.637 E3.30962
G1 X159.364 Y148.031 E3.32557
G1 X159.54 Y149.26 E3.37513
G1 X159.609 Y150.028 E3.4059
G1 X159.599 Y150.8 E3.43672
G1 X159.509 Y151.566 E3.4675
G1 X159.34 Y152.318 E3.49826
G1 X159.094 Y153.049 E3.52905
G1 X158.943 Y153.405 E3.54448
G1 X158.429 Y154.531 E3.59388
G1 X158.073 Y155.215 E3.62466
G1 X157.648 Y155.858 E3.65542
G1 X157.158 Y156.454 E3.68622
G1 X156.61 Y156.996 E3.71698
G1 X156.008 Y157.479 E3.74778
G1 X155.684 Y157.7 E3.76344
G1 X154.64 Y158.371 E3.81297
G1 X153.97 Y158.754 E3.84377
G1 X153.265 Y159.065 E3.87452
G1 X152.531 Y159.302 E3.90531
G1 X151.776 Y159.461 E3.9361
G1 X151.009 Y159.542 E3.96689
G1 X150.617 Y159.552 E3.98254
G1 X149.378 Y159.552 E4.03199
G1 X148.608 Y159.512 E4.06276
G1 X147.846 Y159.393 E4.09354
G1 X147.1 Y159.195 E4.12435
G1 X146.379 Y158.921 E4.15513
G1 X145.691 Y158.574 E4.18589
G1 X145.353 Y158.369 E4.20167
G1 X144.31 Y157.698 E4.25117
G1 X143.684 Y157.248 E4.28194
G1 X143.107 Y156.735 E4.31275
G1 X142.587 Y156.165 E4.34355
G1 X142.129 Y155.545 E4.37431
G1 X141.569 Y154.536 E4.42037
G1 X141.054 Y153.41 E4.46979
G1 X140.77 Y152.692 E4.5006
G1 X140.562 Y151.95 E4.53136
G1 X140.432 Y151.19 E4.56213
G1 X140.381 Y150.42 E4.59293
G1 X140.41 Y149.65 E4.62369
G1 X140.456 Y149.254 E4.6396
G1 X140.633 Y148.025 E4.68916
G1 X140.782 Y147.269 E4.71991
G1 X141.009 Y146.532 E4.75069
G1 X141.311 Y145.822 E4.78149
G1 X141.685 Y145.147 E4.81229
G1 X142.127 Y144.515 E4.84307
G1 X142.374 Y144.214 E4.85861
G1 X143.185 Y143.278 E4.90804
G1 X143.72 Y142.722 E4.93883
M204 S500
G0 F4200 X144.066 Y143.056
M204 S1100
G1 F900 X144.638 Y142.577 E4.96861
G1 X145.259 Y142.163 E4.9984
G1 X145.92 Y141.818 E5.02816
G1 X146.849 Y141.471 E5.06774
G1 X148.039 Y141.122 E5.11724
G1 X148.765 Y140.951 E5.147
G1 X149.505 Y140.858 E5.17677
G1 X150.251 Y140.846 E5.20655
G1 X150.994 Y140.913 E5.23633
G1 X151.958 Y141.123 E5.2757
G1 X153.147 Y141.472 E5.32516
G1 X153.851 Y141.72 E5.35495
G1 X154.524 Y142.042 E5.38473
G1 X155.158 Y142.434 E5.41448
G1 X155.747 Y142.892 E5.44426
G1 X156.444 Y143.589 E5.4836
G1 X157.256 Y144.525 E5.53306
G1 X157.714 Y145.114 E5.56283
G1 X158.107 Y145.748 E5.59261
G1 X158.429 Y146.421 E5.62238
G1 X158.677 Y147.125 E5.65217
G1 X158.889 Y148.099 E5.69196
G1 X159.065 Y149.328 E5.74151
G1 X159.131 Y150.071 E5.77128
G1 X159.117 Y150.817 E5.80106
G1 X159.023 Y151.557 E5.83083
G1 X158.851 Y152.283 E5.86061
G1 X158.507 Y153.205 E5.89989
G1 X157.993 Y154.331 E5.94929
G1 X157.647 Y154.992 E5.97907
G1 X157.232 Y155.612 E6.00885
G1 X156.754 Y156.185 E6.03863
G1 X156.217 Y156.703 E6.06841
G1 X155.424 Y157.296 E6.10793
G1 X154.38 Y157.967 E6.15746
G1 X153.732 Y158.336 E6.18722
G1 X153.048 Y158.634 E6.217
G1 X152.336 Y158.856 E6.24677
G1 X151.604 Y159.002 E6.27656
G1 X150.617 Y159.072 E6.31605
G1 X149.378 Y159.072 E6.3655
G1 X148.633 Y159.032 E6.39528
G1 X147.897 Y158.913 E6.42504
G1 X147.178 Y158.715 E6.4548
G1 X146.484 Y158.442 E6.48457
G1 X145.612 Y157.965 E6.52424
G1 X144.569 Y157.294 E6.57374
G1 X143.965 Y156.858 E6.60347
G1 X143.41 Y156.359 E6.63326
G1 X142.912 Y155.804 E6.66302
G1 X142.476 Y155.198 E6.69282
G1 X142.006 Y154.336 E6.732
G1 X141.491 Y153.21 E6.78142
G1 X141.217 Y152.516 E6.8112
G1 X141.02 Y151.797 E6.84095
G1 X140.9 Y151.06 E6.87076
G1 X140.86 Y150.315 E6.90053
G1 X140.931 Y149.323 E6.94023
G1 X141.108 Y148.094 E6.98979
G1 X141.254 Y147.362 E7.01958
G1 X141.477 Y146.651 E7.04932
G1 X141.775 Y145.967 E7.0791
G1 X142.145 Y145.319 E7.10888
G1 X142.737 Y144.528 E7.14831
G1 X143.548 Y143.592 E7.19774
G1 X144.066 Y143.056 E7.22749
M204 S500
G0 F4200 X144.411 Y143.39
M204 S1100
G1 F900 X144.966 Y142.932 E7.25621
G1 X145.569 Y142.538 E7.28496
G1 X146.211 Y142.213 E7.31368
G1 X146.984 Y141.932 E7.34651
G1 X148.174 Y141.583 E7.396
G1 X148.875 Y141.419 E7.42474
G1 X149.59 Y141.334 E7.45348
G1 X150.31 Y141.328 E7.48221
G1 X151.025 Y141.403 E7.51091
G1 X151.823 Y141.583 E7.54356
G1 X153.012 Y141.932 E7.59302
G1 X153.69 Y142.173 E7.62173
G1 X154.338 Y142.488 E7.65049
G1 X154.946 Y142.872 E7.67919
G1 X155.508 Y143.321 E7.7079
G1 X156.082 Y143.904 E7.74056
G1 X156.894 Y144.84 E7.79001
G1 X157.335 Y145.409 E7.81875
G1 X157.709 Y146.023 E7.84744
G1 X158.014 Y146.675 E7.87617
G1 X158.244 Y147.357 E7.9049
G1 X158.414 Y148.167 E7.93793
G1 X158.59 Y149.396 E7.98748
G1 X158.652 Y150.113 E8.01621
G1 X158.634 Y150.833 E8.04495
G1 X158.537 Y151.546 E8.07367
G1 X158.361 Y152.244 E8.1024
G1 X158.07 Y153.006 E8.13496
G1 X157.556 Y154.132 E8.18436
G1 X157.221 Y154.769 E8.21308
G1 X156.818 Y155.365 E8.2418
G1 X156.351 Y155.913 E8.27054
G1 X155.826 Y156.405 E8.29925
G1 X155.165 Y156.892 E8.33202
G1 X154.121 Y157.563 E8.38155
G1 X153.494 Y157.918 E8.41031
G1 X152.833 Y158.201 E8.43901
G1 X152.144 Y158.41 E8.46775
G1 X151.436 Y158.54 E8.49648
G1 X150.617 Y158.592 E8.52923
G1 X149.378 Y158.592 E8.57868
G1 X148.659 Y158.552 E8.60742
G1 X147.95 Y158.433 E8.63612
G1 X147.258 Y158.235 E8.66485
G1 X146.592 Y157.962 E8.69357
G1 X145.872 Y157.562 E8.72645
G1 X144.829 Y156.891 E8.77595
G1 X144.246 Y156.468 E8.80469
G1 X143.714 Y155.984 E8.8334
G1 X143.239 Y155.443 E8.86213
G1 X142.826 Y154.853 E8.89088
G1 X142.442 Y154.136 E8.92334
G1 X141.927 Y153.01 E8.97276
G1 X141.665 Y152.34 E9.00147
G1 X141.478 Y151.645 E9.0302
G1 X141.37 Y150.933 E9.05894
G1 X141.341 Y150.214 E9.08766
G1 X141.406 Y149.391 E9.12061
G1 X141.583 Y148.162 E9.17017
G1 X141.725 Y147.457 E9.19887
G1 X141.945 Y146.771 E9.22763
G1 X142.239 Y146.114 E9.25635
G1 X142.604 Y145.494 E9.28507
G1 X143.1 Y144.843 E9.31773
G1 X143.911 Y143.907 E9.36716
G1 X144.411 Y143.39 E9.39587
M204 S500
G0 F4200 X144.756 Y143.725
M204 S1100
G1 F900 X145.293 Y143.287 E9.42353
G1 X145.877 Y142.915 E9.45116
G1 X146.5 Y142.612 E9.47881
G1 X147.119 Y142.392 E9.50503
G1 X148.309 Y142.043 E9.55453
G1 X148.984 Y141.887 E9.58218
G1 X149.672 Y141.81 E9.60981
G1 X150.365 Y141.812 E9.63747
G1 X151.052 Y141.894 E9.66508
G1 X151.688 Y142.044 E9.69117
G1 X152.877 Y142.393 E9.74062
G1 X153.529 Y142.626 E9.76826
G1 X154.15 Y142.933 E9.79591
G1 X154.731 Y143.309 E9.82353
G1 X155.266 Y143.749 E9.85117
G1 X155.719 Y144.218 E9.8772
G1 X156.531 Y145.154 E9.92666
G1 X156.954 Y145.703 E9.95432
G1 X157.311 Y146.296 E9.98194
G1 X157.597 Y146.927 E10.00959
G1 X157.809 Y147.586 E10.03722
G1 X157.938 Y148.235 E10.06363
G1 X158.114 Y149.464 E10.11319
G1 X158.173 Y150.155 E10.14087
G1 X158.151 Y150.847 E10.1685
G1 X158.05 Y151.532 E10.19613
G1 X157.871 Y152.201 E10.22377
G1 X157.633 Y152.807 E10.24976
G1 X157.119 Y153.933 E10.29916
G1 X156.796 Y154.545 E10.32678
G1 X156.404 Y155.116 E10.35442
G1 X155.949 Y155.638 E10.38206
G1 X155.437 Y156.104 E10.40969
G1 X154.905 Y156.488 E10.43588
G1 X153.861 Y157.159 E10.48541
G1 X153.258 Y157.5 E10.51306
G1 X152.619 Y157.768 E10.54072
G1 X151.954 Y157.961 E10.56835
G1 X151.271 Y158.076 E10.596
G1 X150.617 Y158.112 E10.62214
G1 X149.378 Y158.112 E10.67159
G1 X148.687 Y158.072 E10.69922
G1 X148.004 Y157.953 E10.72689
G1 X147.341 Y157.755 E10.7545
G1 X146.704 Y157.483 E10.78215
G1 X146.132 Y157.158 E10.80841
G1 X145.089 Y156.487 E10.85791
G1 X144.529 Y156.079 E10.88556
G1 X144.02 Y155.61 E10.91318
G1 X143.568 Y155.085 E10.94083
G1 X143.18 Y154.511 E10.96849
G1 X142.879 Y153.937 E10.99435
G1 X142.364 Y152.811 E11.04377
G1 X142.112 Y152.165 E11.07145
G1 X141.937 Y151.495 E11.09909
G1 X141.84 Y150.809 E11.12674
G1 X141.823 Y150.117 E11.15437
G1 X141.881 Y149.46 E11.18069
G1 X142.058 Y148.231 E11.23025
G1 X142.196 Y147.552 E11.2579
G1 X142.412 Y146.894 E11.28554
G1 X142.702 Y146.265 E11.31319
G1 X143.062 Y145.674 E11.34081
G1 X143.462 Y145.157 E11.3669
G1 X144.273 Y144.221 E11.41633
G1 X144.756 Y143.725 E11.44396
M204 S500
G0 F4200 X145.101 Y144.06
M204 S1100
G1 F900 X145.619 Y143.645 E11.47045
G1 X146.183 Y143.294 E11.49697
G1 X146.785 Y143.014 E11.52346
G1 X147.255 Y142.853 E11.54329
G1 X148.445 Y142.504 E11.59279
G1 X149.092 Y142.356 E11.61928
G1 X149.753 Y142.286 E11.64581
G1 X150.417 Y142.297 E11.67231
G1 X151.075 Y142.387 E11.69882
G1 X151.553 Y142.504 E11.71846
G1 X152.742 Y142.853 E11.76792
G1 X153.367 Y143.079 E11.79445
G1 X153.96 Y143.377 E11.82093
G1 X154.513 Y143.745 E11.84745
G1 X155.018 Y144.176 E11.87394
G1 X155.357 Y144.533 E11.89359
G1 X156.169 Y145.469 E11.94305
G1 X156.573 Y145.996 E11.96955
G1 X156.911 Y146.568 E11.99607
G1 X157.178 Y147.176 E12.02257
G1 X157.37 Y147.812 E12.04909
G1 X157.463 Y148.303 E12.06903
G1 X157.639 Y149.532 E12.11859
G1 X157.694 Y150.194 E12.1451
G1 X157.668 Y150.858 E12.17162
G1 X157.563 Y151.514 E12.19814
G1 X157.38 Y152.153 E12.22467
G1 X157.197 Y152.607 E12.2442
G1 X156.683 Y153.733 E12.29361
G1 X156.371 Y154.32 E12.32014
G1 X155.991 Y154.865 E12.34666
G1 X155.548 Y155.36 E12.37317
G1 X155.05 Y155.799 E12.39967
G1 X154.646 Y156.085 E12.41942
G1 X153.602 Y156.756 E12.46895
G1 X153.022 Y157.08 E12.49547
G1 X152.408 Y157.333 E12.52197
G1 X151.768 Y157.511 E12.54849
G1 X151.111 Y157.61 E12.57501
G1 X150.617 Y157.632 E12.59474
G1 X149.378 Y157.632 E12.64419
G1 X148.715 Y157.592 E12.6707
G1 X148.062 Y157.473 E12.6972
G1 X147.427 Y157.276 E12.72373
G1 X146.821 Y157.004 E12.75024
G1 X146.391 Y156.754 E12.77009
G1 X145.348 Y156.083 E12.81959
G1 X144.812 Y155.691 E12.8461
G1 X144.327 Y155.237 E12.87261
G1 X143.901 Y154.728 E12.8991
G1 X143.538 Y154.172 E12.92561
G1 X143.315 Y153.737 E12.94512
G1 X142.8 Y152.611 E12.99453
G1 X142.561 Y151.991 E13.02106
G1 X142.397 Y151.348 E13.04754
G1 X142.313 Y150.689 E13.07406
G1 X142.308 Y150.025 E13.10056
G1 X142.356 Y149.528 E13.12049
G1 X142.533 Y148.299 E13.17004
G1 X142.667 Y147.649 E13.19653
G1 X142.879 Y147.019 E13.22306
G1 X143.164 Y146.419 E13.24957
G1 X143.519 Y145.858 E13.27607
G1 X143.825 Y145.471 E13.29576
G1 X144.636 Y144.535 E13.34519
G1 X145.101 Y144.06 E13.37172
M204 S500
G0 F4200 X145.444 Y144.397
M204 S1100
G1 F900 X145.942 Y144.004 E13.39704
G1 X146.486 Y143.677 E13.42238
G1 X147.067 Y143.42 E13.44773
G1 X147.39 Y143.314 E13.4613
G1 X148.58 Y142.965 E13.5108
G1 X149.199 Y142.825 E13.53613
G1 X149.83 Y142.764 E13.56143
G1 X150.465 Y142.783 E13.58678
G1 X151.092 Y142.881 E13.61211
G1 X151.417 Y142.965 E13.62551
G1 X152.606 Y143.314 E13.67497
G1 X153.203 Y143.531 E13.70032
G1 X153.768 Y143.821 E13.72567
G1 X154.291 Y144.179 E13.75096
G1 X154.766 Y144.601 E13.77632
G1 X154.994 Y144.847 E13.78971
G1 X155.806 Y145.783 E13.83917
G1 X156.191 Y146.288 E13.86451
G1 X156.509 Y146.837 E13.88983
G1 X156.756 Y147.422 E13.91518
G1 X156.928 Y148.033 E13.94051
G1 X156.988 Y148.372 E13.95425
G1 X157.164 Y149.601 E14.00381
G1 X157.214 Y150.233 E14.02911
G1 X157.185 Y150.867 E14.05444
G1 X157.076 Y151.492 E14.07976
G1 X156.889 Y152.099 E14.10511
G1 X156.76 Y152.408 E14.11848
G1 X156.246 Y153.534 E14.16788
G1 X155.947 Y154.094 E14.19322
G1 X155.579 Y154.611 E14.21854
G1 X155.15 Y155.078 E14.24385
G1 X154.665 Y155.488 E14.2692
G1 X154.386 Y155.681 E14.28274
G1 X153.342 Y156.352 E14.33227
G1 X152.788 Y156.661 E14.35759
G1 X152.199 Y156.897 E14.38292
G1 X151.585 Y157.058 E14.40825
G1 X150.955 Y157.141 E14.43361
G1 X150.617 Y157.152 E14.44711
G1 X149.378 Y157.152 E14.49656
G1 X148.745 Y157.112 E14.52188
G1 X148.121 Y156.993 E14.54723
G1 X147.518 Y156.796 E14.57255
G1 X146.944 Y156.525 E14.59788
G1 X146.651 Y156.351 E14.61148
G1 X145.608 Y155.68 E14.66098
G1 X145.097 Y155.303 E14.68633
G1 X144.637 Y154.866 E14.71165
G1 X144.236 Y154.374 E14.73699
G1 X143.9 Y153.836 E14.7623
G1 X143.752 Y153.537 E14.77562
G1 X143.237 Y152.411 E14.82504
G1 X143.01 Y151.819 E14.85034
G1 X142.859 Y151.202 E14.87569
G1 X142.787 Y150.572 E14.901
G1 X142.794 Y149.937 E14.92635
G1 X142.831 Y149.597 E14.94
G1 X143.008 Y148.368 E14.98956
G1 X143.138 Y147.746 E15.01492
G1 X143.345 Y147.146 E15.04025
G1 X143.626 Y146.577 E15.06558
G1 X143.976 Y146.048 E15.0909
G1 X144.188 Y145.786 E15.10435
G1 X144.999 Y144.85 E15.15378
G1 X145.444 Y144.397 E15.17912
M204 S500
G0 F4200 X145.786 Y144.735
M204 S1100
G1 F900 X146.264 Y144.366 E15.20322
G1 X146.786 Y144.063 E15.22731
